; generated by PrusaSlicer 2.6.0+win64 on 2023-07-11 at 10:54:25 UTC


;
;

;
;
; 

; external perimeters extrusion width = 0.45mm
; perimeters extrusion width = 0.45mm
; infill extrusion width = 0.45mm
; solid infill extrusion width = 0.45mm
; top infill extrusion width = 0.40mm
; support material extrusion width = 0.35mm
; first layer extrusion width = 0.42mm

M73 P0 R73
M201 X2500 Y2500 Z400 E5000 ; sets maximum accelerations, mm/sec^2
M203 X180 Y180 Z12 E80 ; sets maximum feedrates, mm / sec
M204 P2000 R1250 T2500 ; sets acceleration (P, T) and retract acceleration (R), mm/sec^2
M205 X8.00 Y8.00 Z2.00 E10.00 ; sets the jerk limits, mm/sec
M205 S0 T0 ; sets the minimum extruding and travel feed rate, mm/sec
;TYPE:Custom
M862.3 P "MINI" ; printer model check
G90 ; use absolute coordinates
M83 ; extruder relative mode
M104 S170 ; set extruder temp for bed leveling
M140 S60 ; set bed temp
M109 R170 ; wait for bed leveling temp
M190 S60 ; wait for bed temp
M204 T1250 ; set travel acceleration
G28 ; home all without mesh bed level
G29 ; mesh bed leveling 
M204 T2500 ; restore travel acceleration
M104 S215 ; set extruder temp
G92 E0
G1 Y-2 X179 F2400
G1 Z3 F720
M109 S215 ; wait for extruder temp

; intro line
G1 X170 F1000
G1 Z0.2 F720
G1 X110 E8 F900
G1 X40 E10 F700
G92 E0

M221 S95 ; set flow
G21 ; set units to millimeters
G90 ; use absolute coordinates
M83 ; use relative distances for extrusion
M900 K0.2 ; Filament gcode LA 1.5
; ; Filament gcode LA 1.0
M107
;LAYER_CHANGE
;Z:0.2
;HEIGHT:0.2
;BEFORE_LAYER_CHANGE
G92 E0.0
;0.2


G1 E-3.2 F4200
G1 Z.2 F720
;AFTER_LAYER_CHANGE
;0.2
G1 Z.4
G1 X48.019 Y53.698 F9000
G1 Z.2 F720
M73 P0 R72
G1 E3.2 F2400
M204 P600
;TYPE:Skirt/Brim
;WIDTH:0.42
G1 F1200
G1 X49.065 Y52.821 E.0428
G1 X50.005 Y52.628 E.03009
G1 X129.995 Y52.628 E2.50803
G1 X131.302 Y53.019 E.04277
G1 X132.179 Y54.065 E.0428
G1 X132.372 Y55.005 E.03009
G1 X132.372 Y124.995 E2.19449
G1 X131.981 Y126.302 E.04277
G1 X130.935 Y127.179 E.0428
G1 X129.995 Y127.372 E.03009
G1 X50.005 Y127.372 E2.50803
G1 X48.698 Y126.981 E.04277
G1 X47.821 Y125.935 E.0428
G1 X47.628 Y124.995 E.03009
G1 X47.628 Y55.005 E2.19449
G1 X48.002 Y53.755 E.04091
M204 P1000
; printing object color-card.stl id:0 copy 0
G1 E-2.24 F4200
;WIPE_START
G1 F7200
G1 X49.065 Y52.821 E-.78417
G1 X49.376 Y52.757 E-.17583
;WIPE_END
G1 Z.4 F720
G1 X73.067 Y58.187 F9000
G1 Z.2 F720
G1 E3.2 F2400
M204 P600
;TYPE:Support material
G1 F1200
G1 X73.526 Y58.359 E.01537
G1 X73.644 Y58.265 E.00473
G1 X75.255 Y57.995 E.05122
G1 X76.849 Y58.529 E.05271
G1 X77.067 Y58.445 E.00733
G1 X78.186 Y58.312 E.03533
G1 X78.739 Y58.499 E.0183
G1 X78.94 Y58.526 E.00636
G1 X79.741 Y58.746 E.02604
G1 X80.556 Y59.052 E.0273
G1 X80.594 Y59.09 E.00168
G1 X81.572 Y59.422 E.03238
G1 X82.092 Y59.977 E.02385
G1 X82.903 Y60.404 E.02874
G1 X82.937 Y60.442 E.0016
G1 X83.623 Y60.68 E.02277
G1 X84.195 Y61.296 E.02636
G1 X84.376 Y61.359 E.00601
G1 X85.338 Y62.323 E.0427
G1 X85.93 Y62.987 E.02789
G1 X85.978 Y63.169 E.0059
G1 X86.7 Y63.95 E.03335
G1 X86.737 Y64.089 E.00451
G1 X86.863 Y64.228 E.00588
G1 X86.961 Y64.605 E.01221
G1 X87.086 Y64.747 E.00593
G1 X87.242 Y65.171 E.01417
G1 X87.242 Y66.647 E.04628
G1 X87.223 Y66.647 E.0006
G1 X86.942 Y66.928 E.01246
G1 X86.942 Y69.326 E.07519
G1 X87.223 Y69.607 E.01246
G1 X87.242 Y69.607 E.0006
G1 X87.242 Y70.857 E.03919
G1 X87.058 Y71.393 E.01777
G1 X86.768 Y71.71 E.01347
G1 X86.678 Y72.056 E.01121
G1 X86.074 Y72.713 E.02798
G1 X86.018 Y72.927 E.00694
G1 X85.255 Y73.75 E.03519
G1 X85.031 Y74.1 E.01303
G1 X84.009 Y74.926 E.0412
G1 X83.624 Y75.032 E.01252
G1 X83.559 Y75.111 E.00321
G1 X83.339 Y75.218 E.00767
G1 X82.586 Y76.03 E.03472
G1 X81.308 Y76.473 E.04241
G1 X81.023 Y76.776 E.01304
G1 X79.703 Y77.264 E.04413
G1 X78.923 Y77.472 E.02531
G1 X78.63 Y77.424 E.00931
G1 X77.506 Y77.804 E.0372
G1 X75.937 Y77.546 E.04986
G1 X75.315 Y77.779 E.02083
G1 X74.533 Y77.985 E.02536
G1 X73.359 Y77.791 E.03731
G1 X73.01 Y77.632 E.01202
G1 X72.858 Y77.632 E.00477
G1 X71.755 Y78.007 E.03653
G1 X70.238 Y77.759 E.0482
G1 X70.023 Y77.612 E.00817
G1 X69.796 Y77.612 E.00712
G1 X68.871 Y77.925 E.03062
G1 X67.28 Y77.663 E.05056
G1 X66.989 Y77.442 E.01146
G1 X66.769 Y77.431 E.00691
G1 X66.619 Y77.36 E.0052
G1 X66.093 Y77.539 E.01742
G1 X64.789 Y77.399 E.04112
G1 X64.016 Y77.181 E.02518
G1 X63.846 Y77.16 E.00537
G1 X63.041 Y76.945 E.02612
G1 X62.574 Y76.584 E.01851
G1 X61.883 Y76.5 E.02183
G1 X61.282 Y76.338 E.01952
G1 X60.977 Y76.167 E.01096
G1 X60.565 Y76.094 E.01312
G1 X59.304 Y75.113 E.05009
G1 X58.816 Y74.038 E.03702
G1 X59.426 Y74.027 E.01913
G1 X59.602 Y73.764 E.00992
G1 X59.699 Y73.657 E.00453
G1 X59.662 Y73.239 E.01316
G1 X59.249 Y72.902 E.01671
G1 X59.129 Y72.754 E.00597
G1 X59.057 Y72.601 E.0053
G1 X59.018 Y72.5 E.00339
G1 X58.944 Y72.086 E.01319
G1 X58.904 Y71.64 E.01404
G1 X58.839 Y69.827 E.05688
G1 X58.828 Y67.1 E.0855
G1 X58.867 Y65.061 E.06394
G1 X58.944 Y63.914 E.03604
G1 X59.018 Y63.501 E.01316
G1 X59.124 Y63.257 E.00834
G1 X59.264 Y63.085 E.00695
G1 X59.557 Y62.843 E.01192
G1 X59.643 Y62.715 E.00484
G1 X59.706 Y62.493 E.00724
G1 X59.64 Y62.24 E.0082
G1 X59.453 Y62.054 E.00827
G1 X59.338 Y61.99 E.00413
G1 X59.18 Y61.957 E.00506
G1 X58.619 Y61.97 E.01759
G1 X58.976 Y61.194 E.02678
G1 X59.573 Y60.61 E.02619
G1 X60.243 Y60.153 E.02543
G1 X60.563 Y60.054 E.0105
G1 X60.865 Y59.824 E.0119
G1 X61.23 Y59.758 E.01163
G1 X61.429 Y59.641 E.00724
G1 X61.599 Y59.048 E.01934
G1 X62.966 Y59.071 E.04287
G1 X63.818 Y58.844 E.02765
G1 X64.06 Y58.815 E.00764
G1 X64.885 Y58.584 E.02686
G1 X65.546 Y58.504 E.02088
G1 X65.721 Y58.458 E.00567
G1 X66.596 Y58.352 E.02764
G1 X67.312 Y58.539 E.0232
G1 X67.504 Y58.611 E.00643
G1 X67.929 Y58.296 E.01659
G1 X69.503 Y58.036 E.05002
G1 X70.475 Y58.366 E.03218
G1 X70.61 Y58.365 E.00423
G1 X70.787 Y58.23 E.00698
G1 X72.276 Y57.98 E.04734
G1 X73.012 Y58.173 E.02386
M204 P1000
G1 X86.648 Y71.59 F9000
M204 P600
G1 F1200
G1 X86.648 Y64.751 E.21443
G1 X86.555 Y64.394 E.01157
G1 X86.43 Y64.256 E.00584
G1 X86.394 Y64.119 E.00444
G1 X86.229 Y63.941 E.00761
G1 X86.229 Y72.043 E.25403
G1 X85.81 Y72.498 E.01939
G1 X85.81 Y63.487 E.28253
G1 X85.672 Y63.338 E.00637
G1 X85.623 Y63.152 E.00603
G1 X85.391 Y62.892 E.01093
G1 X85.391 Y73.103 E.32016
G1 X84.972 Y73.562 E.01949
G1 X84.972 Y62.437 E.34882
G1 X84.553 Y62.017 E.0186
G1 X84.553 Y74.049 E.37725
G1 X84.134 Y74.388 E.0169
G1 X84.134 Y61.634 E.39989
G1 X84.003 Y61.589 E.00434
G1 X83.715 Y61.279 E.01327
G1 X83.715 Y74.655 E.4194
G1 X83.429 Y74.733 E.00929
G1 X83.344 Y74.838 E.00424
G1 X83.296 Y74.861 E.00167
G1 X83.296 Y60.926 E.43692
G1 X82.877 Y60.781 E.0139
G1 X82.877 Y75.216 E.4526
G1 X82.458 Y75.668 E.01932
G1 X82.458 Y60.554 E.47389
G1 X82.039 Y60.333 E.01485
M73 P1 R72
G1 X82.039 Y75.86 E.48684
G1 X81.62 Y76.006 E.01391
G1 X81.62 Y59.97 E.5028
G1 X81.383 Y59.716 E.01089
G1 X81.201 Y59.655 E.00602
G1 X81.201 Y76.151 E.51722
G1 X81.118 Y76.18 E.00276
G1 X80.831 Y76.485 E.01313
G1 X80.783 Y76.503 E.00161
G1 X80.783 Y59.512 E.53274
G1 X80.412 Y59.386 E.01229
G1 X80.364 Y59.343 E.00202
G1 X80.364 Y76.658 E.5429
G1 X79.945 Y76.813 E.01401
G1 X79.945 Y59.185 E.55271
G1 X79.526 Y59.039 E.01391
G1 X79.526 Y76.96 E.5619
G1 X79.107 Y77.072 E.0136
G1 X79.107 Y58.928 E.56889
G1 X78.866 Y58.858 E.00787
G1 X78.688 Y58.834 E.00563
G1 X78.688 Y77.089 E.57237
G1 X78.601 Y77.075 E.00276
G1 X78.269 Y77.188 E.011
G1 X78.269 Y58.698 E.57974
G1 X78.15 Y58.658 E.00394
G1 X77.85 Y58.694 E.00947
G1 X77.85 Y77.329 E.58429
G1 X77.477 Y77.455 E.01234
G1 X77.431 Y77.447 E.00146
G1 X77.431 Y58.743 E.58645
G1 X77.149 Y58.777 E.00891
G1 X77.012 Y58.83 E.00461
G1 X77.012 Y77.379 E.58159
G1 X76.593 Y77.31 E.01331
G1 X76.593 Y58.801 E.58034
G1 X76.174 Y58.661 E.01385
G1 X76.174 Y77.241 E.58256
G1 X75.903 Y77.196 E.00861
G1 X75.755 Y77.252 E.00496
G1 X75.755 Y58.521 E.5873
G1 X75.336 Y58.38 E.01386
G1 X75.336 Y77.409 E.59664
G1 X74.917 Y77.533 E.0137
G1 X74.917 Y58.396 E.60003
G1 X74.498 Y58.466 E.01332
G1 X74.498 Y77.635 E.60103
G1 X74.079 Y77.566 E.01331
G1 X74.079 Y58.536 E.59667
G1 X73.786 Y58.585 E.00931
G1 X73.66 Y58.685 E.00504
G1 X73.66 Y77.497 E.58984
G1 X73.459 Y77.464 E.00639
G1 X73.241 Y77.364 E.00752
G1 X73.241 Y58.615 E.58786
G1 X72.822 Y58.474 E.01386
G1 X72.822 Y77.292 E.59003
G1 X72.403 Y77.428 E.01381
G1 X72.403 Y58.364 E.59774
G1 X72.261 Y58.327 E.0046
G1 X71.984 Y58.373 E.0088
G1 X71.984 Y77.57 E.60191
G1 X71.726 Y77.658 E.00855
G1 X71.565 Y77.632 E.00511
G1 X71.565 Y58.444 E.60163
G1 X71.146 Y58.514 E.01332
G1 X71.146 Y77.563 E.59727
G1 X70.727 Y77.495 E.01331
G1 X70.727 Y58.703 E.58921
G1 X70.419 Y58.705 E.00966
G1 X70.308 Y58.667 E.00368
G1 X70.308 Y77.396 E.58723
G1 X70.128 Y77.273 E.00684
G1 X69.889 Y77.273 E.00749
G1 X69.889 Y58.525 E.58783
G1 X69.47 Y58.386 E.01384
G1 X69.47 Y77.364 E.59504
G1 X69.051 Y77.506 E.01387
G1 X69.051 Y58.455 E.59733
G1 X68.632 Y58.524 E.01331
G1 X68.632 Y77.542 E.5963
G1 X68.213 Y77.473 E.01331
M73 P1 R71
G1 X68.213 Y58.593 E.59197
G1 X68.066 Y58.617 E.00467
G1 X67.794 Y58.819 E.01062
G1 X67.794 Y77.404 E.58272
G1 X67.418 Y77.342 E.01195
G1 X67.375 Y77.309 E.0017
G1 X67.375 Y58.925 E.57642
G1 X66.956 Y58.797 E.01374
G1 X66.956 Y77.101 E.57391
G1 X66.854 Y77.096 E.0032
G1 X66.641 Y76.994 E.0074
G1 X66.537 Y77.029 E.00344
G1 X66.537 Y58.701 E.57466
G1 X66.118 Y58.751 E.01323
G1 X66.118 Y77.172 E.57758
G1 X66.055 Y77.193 E.00208
G1 X65.699 Y77.155 E.01123
G1 X65.699 Y58.815 E.57504
G1 X65.28 Y58.878 E.01329
G1 X65.28 Y77.11 E.57165
G1 X64.861 Y77.065 E.01321
G1 X64.861 Y58.942 E.56823
G1 X64.442 Y59.053 E.01359
G1 X64.442 Y76.956 E.56134
G1 X64.19 Y76.889 E.00818
G1 X64.139 Y76.854 E.00194
G1 X64.023 Y76.84 E.00366
G1 X64.023 Y59.161 E.55431
G1 X63.882 Y59.178 E.00445
G1 X63.604 Y59.252 E.00902
G1 X63.604 Y76.744 E.54845
G1 X63.185 Y76.628 E.01363
G1 X63.185 Y59.364 E.5413
G1 X63.008 Y59.411 E.00574
M73 P2 R71
G1 X62.766 Y59.407 E.00759
G1 X62.766 Y76.305 E.52982
G1 X62.707 Y76.259 E.00235
G1 X62.348 Y76.215 E.01134
G1 X62.348 Y59.4 E.52722
G1 X61.929 Y59.393 E.01314
G1 X61.929 Y76.161 E.52575
G1 X61.51 Y76.048 E.01361
G1 X61.51 Y59.987 E.50358
G1 X61.349 Y60.081 E.00585
G1 X61.091 Y60.128 E.00822
G1 X61.091 Y75.843 E.49273
G1 X60.708 Y75.775 E.0122
G1 X60.672 Y75.747 E.00143
G1 X60.672 Y60.376 E.48195
G1 X60.392 Y60.462 E.00918
G1 X60.253 Y60.557 E.00528
G1 X60.253 Y75.421 E.46605
G1 X59.834 Y75.095 E.01665
G1 X59.834 Y74.028 E.03346
G1 X59.612 Y74.358 E.01247
G1 X59.415 Y74.367 E.00618
G1 X59.415 Y74.947 E.01819
M204 P1000
G1 X59.834 Y73.25 F9000
M204 P600
G1 F1200
G1 X59.834 Y63.04 E.32013
G1 X59.514 Y63.321 E.01335
G1 X59.415 Y63.439 E.00483
G1 X59.415 Y72.816 E.29401
M204 P1000
G1 X59.834 Y62.309 F9000
M204 P600
G1 F1200
G1 X59.834 Y60.843 E.04597
G1 X59.415 Y61.24 E.0181
G1 X59.415 Y61.838 E.01875
M204 P1000
G1 E-2.24 F4200
;WIPE_START
G1 F7200
G1 X59.415 Y61.24 E-.33139
G1 X59.834 Y60.843 E-.31987
G1 X59.834 Y61.4 E-.30874
;WIPE_END
G1 Z.4 F720
G1 X73.067 Y80.187 F9000
G1 Z.2 F720
G1 E3.2 F2400
M204 P600
G1 F1200
G1 X73.526 Y80.359 E.01537
G1 X73.644 Y80.265 E.00473
G1 X75.255 Y79.995 E.05122
G1 X76.792 Y80.51 E.05082
G1 X78.028 Y80.306 E.03928
G1 X78.764 Y80.502 E.02388
G1 X79.042 Y80.558 E.00889
G1 X79.134 Y80.549 E.0029
G1 X80.577 Y81.036 E.04775
G1 X80.642 Y81.106 E.003
G1 X81.572 Y81.422 E.0308
G1 X82.092 Y81.977 E.02385
G1 X82.903 Y82.404 E.02874
G1 X82.937 Y82.442 E.0016
G1 X83.623 Y82.68 E.02277
G1 X84.195 Y83.296 E.02636
G1 X84.39 Y83.364 E.00648
G1 X85.912 Y84.921 E.06827
G1 X85.978 Y85.169 E.00805
G1 X86.7 Y85.95 E.03335
G1 X86.737 Y86.089 E.00451
G1 X86.863 Y86.228 E.00588
G1 X86.961 Y86.605 E.01221
G1 X87.116 Y86.782 E.00738
G1 X87.242 Y87.16 E.01249
G1 X87.242 Y88.59 E.04484
G1 X87.223 Y88.59 E.0006
G1 X86.942 Y88.871 E.01246
G1 X86.942 Y91.269 E.07519
G1 X87.223 Y91.55 E.01246
G1 X87.242 Y91.55 E.0006
G1 X87.242 Y92.857 E.04098
G1 X87.058 Y93.393 E.01777
G1 X86.768 Y93.71 E.01347
G1 X86.678 Y94.056 E.01121
G1 X86.074 Y94.713 E.02798
G1 X86.018 Y94.927 E.00694
G1 X85.255 Y95.75 E.03519
G1 X85.045 Y96.078 E.01221
G1 X84.057 Y96.906 E.04042
G1 X83.627 Y97.028 E.01401
G1 X83.559 Y97.111 E.00336
G1 X83.339 Y97.218 E.00767
G1 X82.586 Y98.03 E.03472
G1 X81.308 Y98.473 E.04241
G1 X81.013 Y98.787 E.01351
G1 X79.045 Y99.492 E.06555
G1 X78.63 Y99.424 E.01319
G1 X77.506 Y99.804 E.0372
G1 X75.937 Y99.546 E.04986
G1 X75.315 Y99.779 E.02083
G1 X74.533 Y99.985 E.02536
G1 X73.359 Y99.791 E.03731
G1 X73.01 Y99.632 E.01202
G1 X72.858 Y99.632 E.00477
G1 X71.755 Y100.007 E.03653
G1 X70.238 Y99.759 E.0482
G1 X70.023 Y99.612 E.00817
G1 X69.796 Y99.612 E.00712
G1 X68.871 Y99.925 E.03062
G1 X67.28 Y99.663 E.05056
G1 X66.989 Y99.442 E.01146
G1 X66.769 Y99.431 E.00691
G1 X66.619 Y99.36 E.0052
G1 X66.093 Y99.539 E.01742
G1 X64.789 Y99.399 E.04112
G1 X63.945 Y99.163 E.02748
G1 X63.147 Y99.027 E.02538
G1 X62.573 Y98.584 E.02273
G1 X61.883 Y98.5 E.02179
G1 X61.282 Y98.338 E.01952
G1 X60.977 Y98.167 E.01096
G1 X60.565 Y98.094 E.01312
G1 X59.304 Y97.113 E.05009
G1 X58.816 Y96.038 E.03702
G1 X59.426 Y96.027 E.01913
G1 X59.602 Y95.764 E.00992
G1 X59.699 Y95.657 E.00453
G1 X59.662 Y95.239 E.01316
G1 X59.249 Y94.902 E.01671
G1 X59.115 Y94.731 E.00681
G1 X59.018 Y94.5 E.00786
G1 X58.944 Y94.086 E.01319
G1 X58.875 Y93.088 E.03137
G1 X58.832 Y91.289 E.05642
G1 X58.834 Y88.534 E.08638
G1 X58.867 Y87.061 E.0462
G1 X58.944 Y85.914 E.03604
G1 X59.018 Y85.501 E.01316
G1 X59.124 Y85.257 E.00834
G1 X59.264 Y85.085 E.00695
G1 X59.557 Y84.843 E.01192
G1 X59.643 Y84.715 E.00484
G1 X59.706 Y84.493 E.00724
G1 X59.64 Y84.24 E.0082
G1 X59.453 Y84.054 E.00827
G1 X59.338 Y83.99 E.00413
G1 X59.18 Y83.957 E.00506
G1 X58.587 Y83.972 E.0186
G1 X59.121 Y82.983 E.03524
G1 X60.162 Y82.178 E.04126
G1 X60.563 Y82.054 E.01316
G1 X60.865 Y81.824 E.0119
G1 X61.23 Y81.758 E.01163
G1 X61.375 Y81.672 E.00529
G1 X61.537 Y81.062 E.01979
G1 X62.944 Y81.077 E.04412
G1 X63.818 Y80.844 E.02836
G1 X64.059 Y80.815 E.00761
G1 X64.885 Y80.584 E.02689
G1 X65.431 Y80.518 E.01724
G1 X66.638 Y80.319 E.03836
G1 X67.503 Y80.612 E.02864
G1 X67.93 Y80.296 E.01666
G1 X69.503 Y80.036 E.04999
G1 X70.475 Y80.366 E.03218
G1 X70.61 Y80.365 E.00423
G1 X70.787 Y80.23 E.00698
G1 X72.276 Y79.98 E.04734
G1 X73.012 Y80.173 E.02386
M204 P1000
G1 X86.648 Y93.59 F9000
M204 P600
G1 F1200
G1 X86.648 Y86.751 E.21443
G1 X86.555 Y86.394 E.01157
G1 X86.43 Y86.256 E.00584
G1 X86.394 Y86.119 E.00444
G1 X86.229 Y85.941 E.00761
G1 X86.229 Y94.043 E.25403
G1 X85.81 Y94.498 E.01939
G1 X85.81 Y85.487 E.28253
G1 X85.672 Y85.338 E.00637
G1 X85.607 Y85.094 E.00792
G1 X85.391 Y84.873 E.00969
G1 X85.391 Y95.103 E.32075
G1 X84.972 Y95.562 E.01949
G1 X84.972 Y84.445 E.34857
G1 X84.553 Y84.016 E.0188
G1 X84.553 Y96.047 E.37722
G1 X84.134 Y96.399 E.01716
G1 X84.134 Y83.634 E.40024
G1 X84.003 Y83.589 E.00434
G1 X83.715 Y83.279 E.01327
G1 X83.715 Y96.65 E.41924
G1 X83.431 Y96.731 E.00926
G1 X83.344 Y96.838 E.00432
G1 X83.296 Y96.861 E.00167
G1 X83.296 Y82.926 E.43692
G1 X82.877 Y82.781 E.0139
G1 X82.877 Y97.216 E.4526
G1 X82.458 Y97.668 E.01932
G1 X82.458 Y82.554 E.47389
G1 X82.039 Y82.333 E.01485
G1 X82.039 Y97.86 E.48684
G1 X81.62 Y98.006 E.01391
G1 X81.62 Y81.97 E.5028
G1 X81.382 Y81.716 E.01091
G1 X81.201 Y81.655 E.00599
G1 X81.201 Y98.151 E.51722
G1 X81.118 Y98.18 E.00276
G1 X80.821 Y98.495 E.01357
G1 X80.783 Y98.509 E.00127
G1 X80.783 Y81.512 E.53293
G1 X80.453 Y81.4 E.01093
G1 X80.364 Y81.323 E.00369
G1 X80.364 Y98.659 E.54356
G1 X79.945 Y98.809 E.01395
G1 X79.945 Y81.181 E.55271
G1 X79.526 Y81.04 E.01386
G1 X79.526 Y98.959 E.56184
G1 X79.107 Y99.109 E.01395
G1 X79.107 Y80.898 E.57099
G1 X79.007 Y80.903 E.00314
G1 X78.866 Y80.858 E.00464
G1 X78.688 Y80.833 E.00564
G1 X78.688 Y99.089 E.5724
G1 X78.601 Y99.075 E.00276
G1 X78.269 Y99.188 E.011
G1 X78.269 Y80.721 E.57902
G1 X78.012 Y80.653 E.00834
G1 X77.85 Y80.68 E.00515
G1 X77.85 Y99.329 E.58473
G1 X77.477 Y99.455 E.01234
G1 X77.431 Y99.447 E.00146
G1 X77.431 Y80.749 E.58626
G1 X77.012 Y80.818 E.01331
G1 X77.012 Y99.379 E.58197
G1 X76.593 Y99.31 E.01331
G1 X76.593 Y80.801 E.58034
G1 X76.174 Y80.661 E.01385
