; generated by PrusaSlicer 2.6.0+win64 on 2023-07-11 at 09:39:18 UTC


;
;

;
;
; 

; external perimeters extrusion width = 0.45mm
; perimeters extrusion width = 0.45mm
; infill extrusion width = 0.45mm
; solid infill extrusion width = 0.45mm
; top infill extrusion width = 0.40mm
; support material extrusion width = 0.35mm
; first layer extrusion width = 0.42mm

M73 P0 R46
M201 X2500 Y2500 Z400 E5000 ; sets maximum accelerations, mm/sec^2
M203 X180 Y180 Z12 E80 ; sets maximum feedrates, mm / sec
M204 P2000 R1250 T2500 ; sets acceleration (P, T) and retract acceleration (R), mm/sec^2
M205 X8.00 Y8.00 Z2.00 E10.00 ; sets the jerk limits, mm/sec
M205 S0 T0 ; sets the minimum extruding and travel feed rate, mm/sec
;TYPE:Custom
M862.3 P "MINI" ; printer model check
G90 ; use absolute coordinates
M83 ; extruder relative mode
M104 S170 ; set extruder temp for bed leveling
M140 S60 ; set bed temp
M109 R170 ; wait for bed leveling temp
M190 S60 ; wait for bed temp
M204 T1250 ; set travel acceleration
G28 ; home all without mesh bed level
G29 ; mesh bed leveling 
M204 T2500 ; restore travel acceleration
M104 S215 ; set extruder temp
G92 E0
G1 Y-2 X179 F2400
G1 Z3 F720
M109 S215 ; wait for extruder temp

; intro line
G1 X170 F1000
G1 Z0.2 F720
G1 X110 E8 F900
G1 X40 E10 F700
G92 E0

M221 S95 ; set flow
G21 ; set units to millimeters
G90 ; use absolute coordinates
M83 ; use relative distances for extrusion
M900 K0.2 ; Filament gcode LA 1.5
; ; Filament gcode LA 1.0
M107
;LAYER_CHANGE
;Z:0.2
;HEIGHT:0.2
;BEFORE_LAYER_CHANGE
G92 E0.0
;0.2


G1 E-3.2 F4200
M73 P0 R45
G1 Z.2 F720
;AFTER_LAYER_CHANGE
;0.2
G1 Z.4
G1 X40.515 Y43.695 F9000
G1 Z.2 F720
G1 E3.2 F2400
M204 P600
;TYPE:Skirt/Brim
;WIDTH:0.42
G1 F1200
G1 X41.56 Y42.818 E.04277
G1 X42.5 Y42.625 E.03009
G1 X137.492 Y42.631 E2.97841
G1 X138.799 Y43.022 E.04277
G1 X139.676 Y44.068 E.0428
G1 X139.869 Y45.008 E.03009
G1 X139.868 Y81 E1.1285
G1 X139.799 Y81.74 E.0233
G1 X139.536 Y82.653 E.02979
G1 X139.043 Y83.548 E.03204
G1 X105.053 Y135.538 E1.94757
G1 X104.428 Y136.235 E.02935
G1 X103.708 Y136.757 E.02788
G1 X103.153 Y137.036 E.01948
G1 X102.24 Y137.299 E.02979
G1 X101.5 Y137.368 E.0233
G1 X42.5 Y137.375 E1.8499
G1 X41.193 Y136.984 E.04277
M73 P1 R45
G1 X40.317 Y135.938 E.04278
G1 X40.123 Y134.998 E.03009
G1 X40.123 Y45.002 E2.82176
G1 X40.497 Y43.752 E.04091
M204 P1000
; printing object green-card.stl id:0 copy 0
G1 E-2.24 F4200
;WIPE_START
G1 F7200
G1 X41.56 Y42.818 E-.78417
G1 X41.871 Y42.754 E-.17583
;WIPE_END
G1 Z.4 F720
G1 X79.88 Y51.37 F9000
G1 Z.2 F720
G1 E3.2 F2400
M204 P600
;TYPE:Perimeter
;WIDTH:0.43052
G1 F1200
G1 X79.713 Y51.779 E.01424
;WIDTH:0.419999
G1 X79.713 Y52.713 E.02928
G1 X79.165 Y52.713 E.01718
G1 X78.605 Y52.74 E.01758
G1 X78.296 Y53 E.01266
G1 X78.656 Y52.459 E.02037
G1 X79.04 Y52.019 E.01831
G1 X79.464 Y51.647 E.01769
;WIDTH:0.43052
G1 X79.83 Y51.403 E.01418
M204 P1000
G1 E-2.24 F4200
;WIPE_START
G1 F7200
G1 X79.713 Y51.779 E-.21822
G1 X79.713 Y52.713 E-.51759
G1 X79.308 Y52.713 E-.22419
;WIPE_END
G1 Z.4 F720
G1 X78.251 Y53.086 F9000
G1 Z.2 F720
G1 E3.2 F2400
M204 P600
;WIDTH:0.415937
G1 F1200
G1 X78.215 Y53.279 E.00609
;WIDTH:0.4206
G1 X78.213 Y54.401 E.03524
;WIDTH:0.444381
G1 X78.201 Y56.721 E.07745
;WIDTH:0.45028
G1 X78.207 Y56.822 E.00343
G1 X78.433 Y57.169 E.01403
;WIDTH:0.419999
G1 X78.779 Y57.287 E.01146
G1 X79.713 Y57.287 E.02928
G1 X79.713 Y58.221 E.02928
G1 X79.783 Y58.494 E.00884
G1 X79.943 Y58.676 E.0076
G1 X80.122 Y58.765 E.00627
G1 X80.279 Y58.787 E.00497
G1 X83.721 Y58.787 E.10792
G1 X83.878 Y58.765 E.00497
G1 X84.057 Y58.676 E.00627
G1 X84.217 Y58.494 E.0076
G1 X84.287 Y58.221 E.00884
G1 X84.287 Y57.287 E.02928
G1 X85.221 Y57.287 E.02928
G1 X85.567 Y57.169 E.01146
;WIDTH:0.450279
G1 X85.793 Y56.822 E.01403
G1 X85.799 Y56.721 E.00343
;WIDTH:0.444381
G1 X85.787 Y54.401 E.07745
;WIDTH:0.420554
G1 X85.785 Y53.279 E.03523
;WIDTH:0.415921
G1 X85.749 Y53.086 E.00609
G1 X85.834 Y53.269 E.00626
;WIDTH:0.420554
G1 X86.025 Y53.768 E.01678
G1 X86.164 Y54.387 E.01992
;WIDTH:0.444381
G1 X86.201 Y55.03 E.0215
G1 X86.201 Y56.721 E.05645
;WIDTH:0.450279
G1 X86.213 Y57.486 E.02592
;WIDTH:0.419999
G1 X86.213 Y90.221 E1.02638
G1 X86.221 Y90.315 E.00296
G1 X86.326 Y90.561 E.00839
G1 X86.5 Y90.714 E.00726
G1 X86.779 Y90.787 E.00904
G1 X88.32 Y90.779 E.04832
G1 X88.548 Y90.683 E.00776
G1 X88.723 Y90.482 E.00836
G1 X88.787 Y90.221 E.00843
G1 X88.787 Y56.592 E1.05441
;WIDTH:0.460464
G1 X88.807 Y56.487 E.00371
;WIDTH:0.500928
G1 X88.828 Y56.382 E.00408
;WIDTH:0.541392
G1 X88.848 Y56.277 E.00443
;WIDTH:0.581856
G1 X88.868 Y56.172 E.00479
G1 X88.927 Y56.244 E.00417
;WIDTH:0.541392
G1 X88.986 Y56.316 E.00386
;WIDTH:0.500928
G1 X89.046 Y56.389 E.0036
;WIDTH:0.460464
G1 X89.105 Y56.461 E.00323
;WIDTH:0.419999
G1 X91.539 Y58.895 E.10793
G1 X91.691 Y59.003 E.00585
G1 X91.838 Y59.052 E.00486
G1 X92.065 Y59.047 E.00712
G1 X92.339 Y58.895 E.00982
G1 X93 Y58.234 E.02931
G1 X93.791 Y58.993 E.03437
G1 X94.037 Y59.06 E.00799
G1 X94.309 Y59.003 E.00871
G1 X94.461 Y58.895 E.00585
G1 X96.895 Y56.461 E.10793
;WIDTH:0.460464
G1 X96.954 Y56.389 E.00323
;WIDTH:0.500928
G1 X97.014 Y56.316 E.0036
;WIDTH:0.541392
G1 X97.073 Y56.244 E.00386
;WIDTH:0.581856
G1 X97.132 Y56.172 E.00417
G1 X97.152 Y56.277 E.00479
;WIDTH:0.541392
G1 X97.172 Y56.382 E.00443
;WIDTH:0.500928
G1 X97.193 Y56.487 E.00408
;WIDTH:0.460464
G1 X97.213 Y56.592 E.00371
;WIDTH:0.419999
G1 X97.213 Y91.632 E1.09865
G1 X97.284 Y91.907 E.00891
G1 X97.509 Y92.129 E.00991
G1 X97.731 Y92.249 E.00791
G1 X97.509 Y92.37 E.00793
G1 X97.284 Y92.592 E.00991
G1 X97.213 Y92.867 E.00891
G1 X97.213 Y100.745 E.24701
G1 X97.177 Y101.565 E.02574
G1 X97.072 Y102.362 E.02521
G1 X96.898 Y103.146 E.02518
G1 X96.651 Y103.929 E.02574
G1 X87.5 Y129.073 E.83896
G1 X83.067 Y116.92 E.40561
G1 X82.934 Y116.713 E.00771
G1 X82.848 Y116.698 E.00274
G1 X82.904 Y116.631 E.00274
G1 X82.873 Y116.386 E.00774
G1 X78.349 Y103.929 E.41554
G1 X78.102 Y103.146 E.02574
G1 X77.928 Y102.362 E.02518
G1 X77.823 Y101.565 E.02521
G1 X77.787 Y100.745 E.02574
G1 X77.787 Y57.486 E1.35635
;WIDTH:0.444381
G1 X77.799 Y55.038 E.08172
G1 X77.84 Y54.359 E.02271
;WIDTH:0.4206
G1 X77.98 Y53.751 E.01959
G1 X78.229 Y53.142 E.02066
M204 P1000
G1 E-2.24 F4200
;WIPE_START
G1 F7200
G1 X78.215 Y53.279 E-.07632
G1 X78.213 Y54.401 E-.62178
G1 X78.211 Y54.874 E-.2619
;WIPE_END
G1 Z.4 F720
G1 X85.704 Y53 F9000
G1 Z.2 F720
G1 E3.2 F2400
M204 P600
;WIDTH:0.419999
G1 F1200
G1 X85.395 Y52.74 E.01266
G1 X85.221 Y52.713 E.00552
G1 X84.287 Y52.713 E.02928
G1 X84.287 Y51.779 E.02928
;WIDTH:0.43045
G1 X84.12 Y51.37 E.01424
G1 X84.536 Y51.647 E.0161
;WIDTH:0.419999
G1 X84.96 Y52.019 E.01769
G1 X85.344 Y52.459 E.01831
G1 X85.671 Y52.95 E.0185
M204 P1000
G1 E-2.24 F4200
;WIPE_START
G1 F7200
G1 X85.395 Y52.74 E-.19219
G1 X85.221 Y52.713 E-.09758
G1 X84.287 Y52.713 E-.51759
G1 X84.287 Y52.438 E-.15264
;WIPE_END
G1 Z.4 F720
G1 X88.941 Y53.911 F9000
G1 Z.2 F720
G1 E3.2 F2400
M204 P600
G1 F1200
G1 X89.105 Y54.339 E.01437
G1 X89.766 Y55 E.02931
G1 X89.105 Y55.661 E.02931
;WIDTH:0.458033
G1 X89.044 Y55.761 E.00404
;WIDTH:0.496066
G1 X88.984 Y55.861 E.00439
;WIDTH:0.534099
G1 X88.924 Y55.961 E.00476
;WIDTH:0.572132
G1 X88.863 Y56.061 E.00515
G1 X88.844 Y55.928 E.00591
;WIDTH:0.534099
G1 X88.825 Y55.795 E.00549
;WIDTH:0.496066
G1 X88.806 Y55.662 E.00506
;WIDTH:0.458033
G1 X88.787 Y55.529 E.00464
;WIDTH:0.419999
G1 X88.787 Y55.029 E.01568
G1 X88.831 Y54.441 E.01849
G1 X88.929 Y53.969 E.01511
M204 P1000
G1 E-2.24 F4200
;WIPE_START
G1 F7200
G1 X89.105 Y54.339 E-.22706
G1 X89.766 Y55 E-.51803
G1 X89.492 Y55.274 E-.21491
;WIPE_END
G1 Z.4 F720
G1 X91.684 Y51.006 F9000
G1 Z.2 F720
G1 E3.2 F2400
M204 P600
;WIDTH:0.421719
G1 F1200
G1 X91.501 Y51.142 E.00718
;WIDTH:0.430398
G1 X90.636 Y52.001 E.03928
;WIDTH:0.441579
G1 X89.796 Y52.857 E.03976
;WIDTH:0.409661
G1 X89.109 Y53.543 E.02961
;WIDTH:0.41225
G1 X88.982 Y53.734 E.00704
G1 X89.205 Y53.164 E.0188
;WIDTH:0.407857
G1 X89.524 Y52.614 E.01929
;WIDTH:0.441579
G1 X89.932 Y52.133 E.02091
G1 X90.39 Y51.704 E.0208
;WIDTH:0.430398
G1 X90.906 Y51.354 E.02009
G1 X91.629 Y51.031 E.02551
M204 P1000
G1 E-2.24 F4200
;WIPE_START
G1 F7200
G1 X91.501 Y51.142 E-.09389
G1 X90.636 Y52.001 E-.67556
G1 X90.395 Y52.246 E-.19055
;WIPE_END
G1 Z.4 F720
G1 X97.018 Y53.734 F9000
G1 Z.2 F720
G1 E3.2 F2400
M204 P600
;WIDTH:0.41229
G1 F1200
G1 X96.891 Y53.543 E.00704
;WIDTH:0.409711
G1 X96.634 Y53.287 E.01106
;WIDTH:0.407913
G1 X96.204 Y52.856 E.01848
;WIDTH:0.441593
G1 X95.364 Y52.001 E.03973
;WIDTH:0.430364
G1 X94.937 Y51.574 E.01945
G1 X94.316 Y51.006 E.02711
;WIDTH:0.421664
G1 X94.54 Y51.082 E.00745
;WIDTH:0.430364
G1 X95.111 Y51.363 E.0205
G1 X95.632 Y51.722 E.02038
;WIDTH:0.441593
G1 X96.088 Y52.155 E.02085
G1 X96.491 Y52.636 E.0208
;WIDTH:0.407913
G1 X96.802 Y53.177 E.01894
;WIDTH:0.41229
G1 X96.996 Y53.678 E.0165
M204 P1000
G1 E-2.24 F4200
;WIPE_START
G1 F7200
G1 X96.891 Y53.543 E-.09478
G1 X96.634 Y53.287 E-.20102
G1 X96.204 Y52.856 E-.33739
G1 X95.791 Y52.435 E-.32681
;WIPE_END
G1 Z.4 F720
G1 X97.137 Y56.061 F9000
G1 Z.2 F720
G1 E3.2 F2400
M204 P600
;WIDTH:0.572132
G1 F1200
G1 X97.076 Y55.961 E.00515
;WIDTH:0.534099
G1 X97.016 Y55.861 E.00476
;WIDTH:0.496066
G1 X96.956 Y55.761 E.00439
;WIDTH:0.458033
G1 X96.895 Y55.661 E.00404
;WIDTH:0.419999
G1 X96.234 Y55 E.02931
G1 X96.895 Y54.339 E.02931
G1 X97.059 Y53.911 E.01437
G1 X97.164 Y54.372 E.01482
G1 X97.213 Y55.029 E.02066
G1 X97.213 Y55.529 E.01568
;WIDTH:0.458033
G1 X97.194 Y55.662 E.00464
;WIDTH:0.496066
G1 X97.175 Y55.795 E.00506
;WIDTH:0.534099
G1 X97.156 Y55.928 E.00549
;WIDTH:0.572132
G1 X97.145 Y56.001 E.00325
M204 P1000
G1 E-2.24 F4200
;WIPE_START
G1 F7200
G1 X97.076 Y55.961 E-.0442
G1 X97.016 Y55.861 E-.06463
G1 X96.956 Y55.761 E-.06463
G1 X96.895 Y55.661 E-.06491
G1 X96.234 Y55 E-.51803
G1 X96.494 Y54.74 E-.2036
;WIPE_END
G1 Z.4 F720
G1 X113.259 Y57.994 F9000
G1 Z.2 F720
G1 E3.2 F2400
M204 P600
;WIDTH:0.419999
G1 F1200
G1 X112.975 Y58.397 E.01546
G1 X112.529 Y59.108 E.02632
G1 X108.564 Y65.977 E.24868
G1 X108.077 Y66.859 E.03159
G1 X107.875 Y66.474 E.01363
G1 X106.274 Y63.693 E.10061
G1 X106.167 Y63.558 E.0054
G1 X106.026 Y63.464 E.00531
G1 X105.7 Y63.415 E.01034
G1 X105.497 Y63.488 E.00676
G1 X104.851 Y63.872 E.02356
G1 X104.374 Y64.229 E.01868
G1 X104.505 Y63.505 E.02307
G1 X104.783 Y62.363 E.03685
G1 X105.163 Y61.265 E.03643
G1 X105.646 Y60.208 E.03644
G1 X106.227 Y59.201 E.03645
G1 X106.901 Y58.255 E.03642
G1 X107.662 Y57.376 E.03645
G1 X108.511 Y56.566 E.03679
G1 X109.054 Y56.107 E.02229
G1 X109.033 Y56.271 E.00518
G1 X108.993 Y57.443 E.03677
G1 X109.028 Y57.659 E.00686
G1 X109.23 Y57.923 E.01042
G1 X109.386 Y58.001 E.00547
G1 X109.559 Y58.028 E.00549
G1 X111.949 Y58.024 E.07494
G1 X113.199 Y57.996 E.0392
M204 P1000
G1 E-2.24 F4200
;WIPE_START
G1 F7200
G1 X112.975 Y58.397 E-.25454
G1 X112.529 Y59.108 E-.46512
G1 X112.312 Y59.484 E-.24034
;WIPE_END
G1 Z.4 F720
G1 X119.403 Y62.42 F9000
G1 Z.2 F720
G1 E3.2 F2400
M204 P600
;WIDTH:0.441151
G1 F1200
G1 X119.885 Y63.233 E.0313
;WIDTH:0.42913
G1 X120.159 Y63.716 E.01783
G1 X119.721 Y63.517 E.01545
;WIDTH:0.419999
G1 X118.787 Y63.517 E.02928
G1 X118.787 Y63.055 E.01449
;WIDTH:0.466367
G1 X118.792 Y62.714 E.01201
;WIDTH:0.512734
G1 X118.796 Y62.372 E.01336
G1 X118.691 Y62.189 E.00824
G1 X118.456 Y62.103 E.00978
;WIDTH:0.466367
G1 X118.221 Y62.017 E.00881
;WIDTH:0.419999
G1 X114.779 Y62.017 E.10792
;WIDTH:0.455489
G1 X114.639 Y62.053 E.00496
;WIDTH:0.490979
G1 X114.5 Y62.089 E.00535
;WIDTH:0.526468
G1 X114.361 Y62.125 E.00577
G1 X114.204 Y62.372 E.01177
;WIDTH:0.512702
G1 X114.203 Y62.477 E.0041
;WIDTH:0.476926
G1 X114.202 Y62.582 E.00379
;WIDTH:0.44115
G1 X114.213 Y63.517 E.03096
;WIDTH:0.419999
G1 X113.279 Y63.517 E.02928
;WIDTH:0.420454
G1 X112.788 Y63.799 E.01777
G1 X113.115 Y63.233 E.02052
;WIDTH:0.44115
G1 X113.597 Y62.42 E.0313
;WIDTH:0.483809
G1 X113.793 Y62.123 E.01305
;WIDTH:0.526468
G1 X113.989 Y61.826 E.01431
G1 X114.092 Y61.612 E.00955
;WIDTH:0.490979
G1 X114.195 Y61.398 E.00885
;WIDTH:0.455489
G1 X114.298 Y61.184 E.00815
;WIDTH:0.419999
G1 X115.607 Y58.916 E.08211
G1 X115.675 Y58.725 E.00636
G1 X115.376 Y58.131 E.02085
G1 X115.161 Y58.019 E.0076
M73 P2 R45
G1 X117.793 Y58.021 E.08252
G1 X117.623 Y58.131 E.00635
G1 X117.325 Y58.725 E.02084
G1 X117.393 Y58.916 E.00636
G1 X118.702 Y61.184 E.08211
;WIDTH:0.466367
G1 X118.888 Y61.552 E.01452
;WIDTH:0.512734
G1 X119.074 Y61.921 E.01614
G1 X119.239 Y62.17 E.01167
;WIDTH:0.476943
G1 X119.37 Y62.37 E.00863
M204 P1000
G1 E-2.24 F4200
;WIPE_START
G1 F7200
G1 X119.885 Y63.233 E-.55693
G1 X120.159 Y63.716 E-.30773
G1 X120.002 Y63.645 E-.09534
;WIPE_END
G1 Z.4 F720
G1 X119.871 Y55.033 F9000
G1 Z.2 F720
G1 E3.2 F2400
M204 P600
;WIDTH:0.419999
G1 F1200
G1 X110.771 Y55.035 E.28532
G1 X111.426 Y54.696 E.02312
G1 X112.506 Y54.263 E.03648
G1 X113.621 Y53.936 E.03643
G1 X114.762 Y53.716 E.03643
G1 X116.152 Y53.583 E.04378
G1 X116.419 Y53.486 E.00891
G1 X116.608 Y53.25 E.00948
G1 X116.788 Y53.494 E.00951
G1 X117.075 Y53.605 E.00965
G1 X118.238 Y53.716 E.03663
G1 X119.379 Y53.936 E.03643
G1 X120.494 Y54.263 E.03643
G1 X121.567 Y54.693 E.03624
G1 X122.233 Y55.035 E.02347
G1 X119.931 Y55.033 E.07218
M204 P1000
G1 E-2.24 F4200
;WIPE_START
G1 F7200
G1 X118.199 Y55.033 E-.96
;WIPE_END
G1 Z.4 F720
G1 X128.622 Y64.204 F9000
G1 Z.2 F720
G1 E3.2 F2400
M204 P600
G1 F1200
G1 X127.516 Y63.495 E.04119
G1 X127.3 Y63.415 E.00722
G1 X126.974 Y63.464 E.01034
G1 X126.833 Y63.558 E.00531
G1 X126.726 Y63.693 E.0054
G1 X125.135 Y66.459 E.10005
G1 X124.908 Y66.936 E.01656
G1 X124.659 Y66.412 E.01819
G1 X124.305 Y65.748 E.02359
G1 X120.204 Y58.657 E.25684
G1 X119.729 Y57.994 E.02557
G1 X120.232 Y58.022 E.0158
G1 X123.441 Y58.028 E.10062
G1 X123.614 Y58.001 E.00549
G1 X123.77 Y57.923 E.00547
G1 X123.972 Y57.659 E.01042
G1 X124.007 Y57.457 E.00643
G1 X123.997 Y56.703 E.02364
G1 X123.928 Y56.092 E.01928
G1 X124.489 Y56.566 E.02303
G1 X125.338 Y57.376 E.03679
G1 X126.099 Y58.255 E.03645
G1 X126.773 Y59.201 E.03642
G1 X127.354 Y60.208 E.03645
G1 X127.837 Y61.265 E.03644
G1 X128.217 Y62.363 E.03643
G1 X128.495 Y63.505 E.03685
G1 X128.611 Y64.145 E.02039
M204 P1000
G1 E-2.24 F4200
;WIPE_START
G1 F7200
G1 X127.516 Y63.495 E-.70567
G1 X127.3 Y63.415 E-.12765
G1 X127.074 Y63.449 E-.12668
;WIPE_END
G1 Z.4 F720
G1 X122.963 Y76.155 F9000
G1 Z.2 F720
G1 E3.2 F2400
M204 P600
G1 F1200
G1 X128.46 Y66.646 E.34438
;WIDTH:0.42572
G1 X128.711 Y66.172 E.01707
G1 X128.686 Y66.317 E.00468
;WIDTH:0.423536
G1 X128.657 Y66.964 E.0205
;WIDTH:0.419999
G1 X128.491 Y68.115 E.03646
G1 X128.217 Y69.244 E.03643
G1 X127.837 Y70.342 E.03643
G1 X127.354 Y71.399 E.03644
G1 X126.773 Y72.406 E.03645
G1 X126.099 Y73.353 E.03644
G1 X125.338 Y74.231 E.03643
G1 X124.497 Y75.033 E.03644
G1 X123.582 Y75.752 E.03649
G1 X123.013 Y76.122 E.02128
M204 P1000
G1 E-2.24 F4200
;WIPE_START
G1 F7200
G1 X123.876 Y74.62 E-.96
;WIPE_END
G1 Z.4 F720
G1 X120.265 Y63.999 F9000
G1 Z.2 F720
G1 E3.2 F2400
M204 P600
;WIDTH:0.420554
G1 F1200
G1 X120.212 Y63.799 E.0065
G1 X120.363 Y64.062 E.00952
;WIDTH:0.420129
G1 X122.085 Y67.044 E.10801
;WIDTH:0.419999
G1 X122.911 Y68.475 E.05181
G1 X123.051 Y68.637 E.00671
G1 X123.702 Y68.671 E.02044
G1 X123.935 Y68.528 E.00857
G1 X122.716 Y70.641 E.07649
G1 X122.569 Y70.938 E.01039
G1 X122.582 Y70.603 E.01051
G1 X122.227 Y70.063 E.02026
G1 X122.017 Y70.022 E.00671
G1 X118.986 Y70.02 E.09503
;WIDTH:0.446046
G1 X114.778 Y70.005 E.14105
;WIDTH:0.4451
G1 X114.014 Y70.018 E.02555
;WIDTH:0.419999
G1 X110.987 Y70.022 E.09491
G1 X110.772 Y70.063 E.00686
G1 X110.418 Y70.61 E.02043
G1 X110.43 Y70.909 E.00938
G1 X109.043 Y68.513 E.0868
G1 X109.301 Y68.673 E.00952
G1 X109.949 Y68.637 E.02035
G1 X110.088 Y68.477 E.00665
G1 X110.916 Y67.044 E.05189
;WIDTH:0.424337
G1 X112.639 Y64.063 E.1092
;WIDTH:0.42903
G1 X112.743 Y63.887 E.00656
G1 X112.711 Y64.082 E.00634
;WIDTH:0.424337
G1 X112.713 Y67.525 E.10919
;WIDTH:0.419999
G1 X112.807 Y67.837 E.01022
G1 X112.912 Y67.956 E.00498
G1 X113.279 Y68.091 E.01226
G1 X114.213 Y68.091 E.02928
G1 X114.213 Y69.025 E.02928
G1 X114.331 Y69.371 E.01146
