; generated by PrusaSlicer 2.6.0+win64 on 2023-07-10 at 12:36:37 UTC


;
;

;
;
; 

; external perimeters extrusion width = 0.45mm
; perimeters extrusion width = 0.45mm
; infill extrusion width = 0.45mm
; solid infill extrusion width = 0.45mm
; top infill extrusion width = 0.40mm
; first layer extrusion width = 0.42mm

M73 P0 R5
M201 X2500 Y2500 Z400 E5000 ; sets maximum accelerations, mm/sec^2
M203 X180 Y180 Z12 E80 ; sets maximum feedrates, mm / sec
M204 P2000 R1250 T2500 ; sets acceleration (P, T) and retract acceleration (R), mm/sec^2
M205 X8.00 Y8.00 Z2.00 E10.00 ; sets the jerk limits, mm/sec
M205 S0 T0 ; sets the minimum extruding and travel feed rate, mm/sec
;TYPE:Custom
M862.3 P "MINI" ; printer model check
G90 ; use absolute coordinates
M83 ; extruder relative mode
M104 S170 ; set extruder temp for bed leveling
M140 S60 ; set bed temp
M109 R170 ; wait for bed leveling temp
M190 S60 ; wait for bed temp
M204 T1250 ; set travel acceleration
G28 ; home all without mesh bed level
G29 ; mesh bed leveling 
M204 T2500 ; restore travel acceleration
M104 S215 ; set extruder temp
G92 E0
G1 Y-2 X179 F2400
G1 Z3 F720
M109 S215 ; wait for extruder temp

; intro line
M73 P1 R5
G1 X170 F1000
G1 Z0.2 F720
G1 X110 E8 F900
G1 X40 E10 F700
G92 E0

M221 S95 ; set flow
G21 ; set units to millimeters
G90 ; use absolute coordinates
M83 ; use relative distances for extrusion
M900 K0.2 ; Filament gcode LA 1.5
; ; Filament gcode LA 1.0
M107
;LAYER_CHANGE
;Z:0.2
;HEIGHT:0.2
;BEFORE_LAYER_CHANGE
G92 E0.0
;0.2


M73 P2 R5
G1 E-3.2 F4200
M73 P4 R5
G1 Z.2 F720
;AFTER_LAYER_CHANGE
;0.2
G1 Z.4
G1 X78.39 Y50.873 F9000
G1 Z.2 F720
M73 P5 R5
G1 E3.2 F2400
M204 P600
;TYPE:Skirt/Brim
;WIDTH:0.42
G1 F1200
G1 X79.04 Y50.045 E.03301
G1 X79.801 Y49.319 E.03298
G1 X80.657 Y48.708 E.03298
G1 X81.592 Y48.225 E.033
G1 X82.26 Y47.976 E.02235
G1 X83.283 Y47.728 E.033
G1 X84.33 Y47.629 E.03297
G1 X95.669 Y47.629 E.35553
G1 X96.716 Y47.728 E.03297
G1 X97.413 Y47.88 E.02237
G1 X98.407 Y48.224 E.03298
G1 X99.342 Y48.707 E.033
G1 X100.455 Y49.54 E.04359
G1 X101.181 Y50.301 E.03298
G1 X101.609 Y50.872 E.02237
G1 X102.134 Y51.783 E.03297
G1 X102.62 Y53.085 E.04357
G1 X102.82 Y54.118 E.03299
G1 X102.877 Y54.999 E.02768
G1 X102.837 Y101.737 E1.46544
G1 X102.669 Y103.013 E.04035
M73 P6 R5
G1 X102.131 Y104.995 E.06439
G1 X92.877 Y130.418 E.84829
G1 X92.371 Y131.295 E.03175
G1 X91.725 Y131.877 E.02726
G1 X91.213 Y132.149 E.01818
G1 X90.515 Y132.342 E.02271
G1 X89.63 Y132.359 E.02775
G1 X88.787 Y132.149 E.02724
G1 X88.155 Y131.793 E.02274
G1 X87.629 Y131.295 E.02271
G1 X87.123 Y130.418 E.03175
G1 X77.869 Y104.995 E.84829
G1 X77.52 Y103.865 E.03708
M73 P7 R5
G1 X77.295 Y102.809 E.03385
M73 P7 R4
G1 X77.123 Y100.762 E.06441
G1 X77.129 Y54.832 E1.4401
G1 X77.228 Y53.784 E.03301
M73 P8 R4
G1 X77.475 Y52.762 E.03297
G1 X77.865 Y51.785 E.03298
G1 X78.36 Y50.925 E.03111
M204 P1000
; printing object leaf.stl id:0 copy 0
G1 E-2.24 F4200
;WIPE_START
G1 F7200
G1 X79.04 Y50.045 E-.6163
G1 X79.489 Y49.617 E-.3437
;WIPE_END
G1 Z.4 F720
G1 X99.52 Y53.744 F9000
G1 Z.2 F720
G1 E3.2 F2400
M204 P600
;TYPE:Perimeter
;WIDTH:0.409126
G1 F1200
G1 X99.389 Y53.546 E.00723
;WIDTH:0.401693
G1 X99.19 Y53.35 E.00833
;WIDTH:0.396995
G1 X98.777 Y52.938 E.01718
;WIDTH:0.437996
G1 X98.386 Y52.517 E.01887
G1 X97.561 Y51.722 E.03764
;WIDTH:0.417566
G1 X96.846 Y51.018 E.03126
G1 X97.26 Y51.162 E.01365
;WIDTH:0.396901
G1 X97.793 Y51.455 E.0179
;WIDTH:0.438027
G1 X98.261 Y51.834 E.01978
G1 X98.684 Y52.259 E.0197
G1 X99.058 Y52.728 E.01971
;WIDTH:0.396995
G1 X99.343 Y53.252 E.01756
;WIDTH:0.409126
G1 X99.5 Y53.687 E.01408
M204 P1000
G1 E-2.24 F4200
;WIPE_START
G1 F7200
G1 X99.389 Y53.546 E-.09944
G1 X99.19 Y53.35 E-.15479
G1 X98.777 Y52.938 E-.32328
G1 X98.386 Y52.517 E-.3184
G1 X98.303 Y52.437 E-.06409
;WIPE_END
G1 Z.4 F720
G1 X99.637 Y56.061 F9000
G1 Z.2 F720
G1 E3.2 F2400
M204 P600
;WIDTH:0.57213
G1 F1200
G1 X99.576 Y55.961 E.00515
;WIDTH:0.534098
G1 X99.516 Y55.861 E.00476
;WIDTH:0.496065
G1 X99.456 Y55.761 E.00439
;WIDTH:0.458032
G1 X99.395 Y55.661 E.00404
;WIDTH:0.419999
G1 X98.734 Y55 E.02931
G1 X99.395 Y54.339 E.02931
;WIDTH:0.422288
G1 X99.561 Y53.916 E.01433
G1 X99.671 Y54.442 E.01695
;WIDTH:0.419999
G1 X99.713 Y55.041 E.01883
G1 X99.713 Y55.529 E.0153
;WIDTH:0.458032
G1 X99.694 Y55.662 E.00464
;WIDTH:0.496065
G1 X99.675 Y55.795 E.00506
;WIDTH:0.534098
G1 X99.656 Y55.928 E.00549
;WIDTH:0.57213
G1 X99.645 Y56.001 E.00325
M204 P1000
G1 E-2.24 F4200
;WIPE_START
G1 F7200
G1 X99.576 Y55.961 E-.0442
G1 X99.516 Y55.861 E-.06463
G1 X99.456 Y55.761 E-.06463
G1 X99.395 Y55.661 E-.06491
G1 X98.734 Y55 E-.51803
G1 X98.994 Y54.74 E-.2036
;WIPE_END
G1 Z.4 F720
G1 X96.584 Y50.938 F9000
G1 Z.2 F720
G1 E3.2 F2400
M204 P600
;WIDTH:0.422356
G1 F1200
G1 X96.161 Y51.105 E.01435
;WIDTH:0.419999
G1 X95.5 Y51.766 E.02931
G1 X94.822 Y51.088 E.03006
G1 X94.32 Y50.955 E.01628
G1 X94.9 Y50.832 E.01859
G1 X95.5 Y50.789 E.01886
G1 X96.088 Y50.831 E.01848
;WIDTH:0.422356
G1 X96.525 Y50.926 E.01411
M204 P1000
G1 E-2.24 F4200
;WIPE_START
G1 F7200
G1 X96.161 Y51.105 E-.22479
G1 X95.5 Y51.766 E-.51803
G1 X95.223 Y51.489 E-.21718
;WIPE_END
G1 Z.4 F720
G1 X94.154 Y51.018 F9000
G1 Z.2 F720
G1 E3.2 F2400
M204 P600
;WIDTH:0.417602
G1 F1200
G1 X93.85 Y51.31 E.01313
;WIDTH:0.396965
G1 X93.438 Y51.722 E.01715
;WIDTH:0.438006
G1 X92.614 Y52.518 E.03764
G1 X92.222 Y52.938 E.01887
;WIDTH:0.401642
G1 X91.611 Y53.546 E.02571
;WIDTH:0.4091
G1 X91.48 Y53.744 E.00723
G1 X91.662 Y53.24 E.01632
;WIDTH:0.396932
G1 X91.955 Y52.707 E.0179
;WIDTH:0.438017
G1 X92.334 Y52.238 E.01981
G1 X92.76 Y51.816 E.0197
G1 X93.217 Y51.448 E.01928
;WIDTH:0.396965
G1 X93.74 Y51.162 E.01755
;WIDTH:0.417602
G1 X94.097 Y51.038 E.01177
M204 P1000
G1 E-2.24 F4200
;WIPE_START
G1 F7200
M73 P9 R4
G1 X93.85 Y51.31 E-.20361
G1 X93.438 Y51.722 E-.32289
G1 X92.875 Y52.265 E-.4335
;WIPE_END
G1 Z.4 F720
G1 X92.266 Y55 F9000
G1 Z.2 F720
G1 E3.2 F2400
M204 P600
;WIDTH:0.419999
G1 F1200
G1 X91.605 Y55.661 E.02931
;WIDTH:0.458032
G1 X91.544 Y55.761 E.00404
;WIDTH:0.496065
G1 X91.484 Y55.861 E.00439
;WIDTH:0.534098
G1 X91.424 Y55.961 E.00476
;WIDTH:0.57213
G1 X91.363 Y56.061 E.00515
G1 X91.344 Y55.928 E.00591
;WIDTH:0.534098
G1 X91.325 Y55.795 E.00549
;WIDTH:0.496065
G1 X91.306 Y55.662 E.00506
;WIDTH:0.458032
G1 X91.287 Y55.529 E.00464
;WIDTH:0.419999
G1 X91.287 Y55.028 E.01571
G1 X91.331 Y54.411 E.01939
;WIDTH:0.42234
G1 X91.439 Y53.916 E.01598
G1 X91.605 Y54.339 E.01434
;WIDTH:0.419999
G1 X92.223 Y54.958 E.02743
M204 P1000
G1 E-2.24 F4200
;WIPE_START
G1 F7200
G1 X91.605 Y55.661 E-.51871
G1 X91.544 Y55.761 E-.06491
G1 X91.484 Y55.861 E-.06463
G1 X91.424 Y55.961 E-.06463
G1 X91.363 Y56.061 E-.06491
G1 X91.344 Y55.928 E-.07445
G1 X91.325 Y55.795 E-.07445
G1 X91.316 Y55.735 E-.03331
;WIPE_END
G1 Z.4 F720
G1 X99.632 Y56.172 F9000
G1 Z.2 F720
G1 E3.2 F2400
M204 P600
;WIDTH:0.581852
G1 F1200
G1 X99.652 Y56.277 E.00479
;WIDTH:0.541389
G1 X99.672 Y56.382 E.00443
;WIDTH:0.500926
G1 X99.693 Y56.487 E.00408
;WIDTH:0.460463
G1 X99.713 Y56.592 E.00371
;WIDTH:0.419999
G1 X99.713 Y100.745 E1.38438
G1 X99.677 Y101.565 E.02574
M73 P10 R4
G1 X99.572 Y102.362 E.02521
G1 X99.398 Y103.146 E.02518
G1 X99.151 Y103.929 E.02574
G1 X90 Y129.072 E.83893
G1 X80.849 Y103.929 E.83893
G1 X80.602 Y103.146 E.02574
G1 X80.428 Y102.362 E.02518
G1 X80.323 Y101.565 E.02521
G1 X80.287 Y100.745 E.02574
G1 X80.287 Y57.486 E1.35635
;WIDTH:0.444381
G1 X80.299 Y55.036 E.08179
M73 P11 R4
G1 X80.336 Y54.388 E.02167
;WIDTH:0.422716
G1 X80.464 Y53.806 E.01882
G1 X80.747 Y53.099 E.02405
;WIDTH:0.416333
G1 X80.715 Y53.279 E.00568
;WIDTH:0.422716
G1 X80.712 Y54.429 E.03632
;WIDTH:0.444381
G1 X80.701 Y56.721 E.07651
;WIDTH:0.45028
G1 X80.707 Y56.822 E.00343
G1 X80.933 Y57.169 E.01403
;WIDTH:0.419999
G1 X81.279 Y57.287 E.01146
G1 X82.213 Y57.287 E.02928
G1 X82.213 Y58.221 E.02928
G1 X82.283 Y58.494 E.00884
G1 X82.443 Y58.676 E.0076
G1 X82.622 Y58.765 E.00627
G1 X82.779 Y58.787 E.00497
G1 X86.221 Y58.787 E.10792
G1 X86.378 Y58.765 E.00497
G1 X86.557 Y58.676 E.00627
G1 X86.717 Y58.494 E.0076
G1 X86.787 Y58.221 E.00884
G1 X86.787 Y57.287 E.02928
G1 X87.721 Y57.287 E.02928
G1 X88.067 Y57.169 E.01146
;WIDTH:0.450279
G1 X88.293 Y56.822 E.01403
G1 X88.299 Y56.721 E.00343
;WIDTH:0.444381
G1 X88.288 Y54.428 E.07654
;WIDTH:0.422675
G1 X88.288 Y53.85 E.01825
G1 X88.253 Y53.099 E.02374
;WIDTH:0.416317
G1 X88.339 Y53.269 E.00592
;WIDTH:0.422675
G1 X88.541 Y53.823 E.01862
G1 X88.668 Y54.414 E.01909
;WIDTH:0.444381
G1 X88.701 Y55.029 E.02056
G1 X88.701 Y56.721 E.05648
;WIDTH:0.450279
M73 P12 R4
G1 X88.713 Y57.486 E.02592
;WIDTH:0.419999
G1 X88.713 Y90.221 E1.02638
G1 X88.721 Y90.315 E.00296
G1 X88.826 Y90.561 E.00839
G1 X89 Y90.714 E.00726
G1 X89.279 Y90.787 E.00904
G1 X90.823 Y90.778 E.04841
G1 X91.061 Y90.674 E.00814
G1 X91.221 Y90.488 E.00769
G1 X91.287 Y90.221 E.00862
G1 X91.287 Y56.592 E1.05441
;WIDTH:0.460463
G1 X91.307 Y56.487 E.00371
;WIDTH:0.500927
M73 P13 R4
G1 X91.328 Y56.382 E.00408
;WIDTH:0.541391
G1 X91.348 Y56.277 E.00443
;WIDTH:0.581854
G1 X91.368 Y56.172 E.00479
G1 X91.427 Y56.244 E.00417
;WIDTH:0.541391
G1 X91.486 Y56.316 E.00386
;WIDTH:0.500927
G1 X91.546 Y56.389 E.0036
;WIDTH:0.460463
G1 X91.605 Y56.461 E.00323
;WIDTH:0.419999
G1 X94.039 Y58.895 E.10793
G1 X94.191 Y59.003 E.00585
G1 X94.338 Y59.052 E.00486
G1 X94.565 Y59.047 E.00712
G1 X94.839 Y58.895 E.00982
G1 X95.5 Y58.234 E.02931
G1 X96.291 Y58.993 E.03437
G1 X96.537 Y59.06 E.00799
G1 X96.809 Y59.003 E.00871
G1 X96.961 Y58.895 E.00585
G1 X99.395 Y56.461 E.10793
;WIDTH:0.460463
G1 X99.454 Y56.389 E.00323
;WIDTH:0.500926
G1 X99.514 Y56.316 E.0036
;WIDTH:0.541389
G1 X99.573 Y56.244 E.00386
;WIDTH:0.581852
G1 X99.594 Y56.219 E.00146
M204 P1000
G1 E-2.24 F4200
;WIPE_START
G1 F7200
G1 X99.652 Y56.277 E-.04546
G1 X99.672 Y56.382 E-.05923
G1 X99.693 Y56.487 E-.05934
G1 X99.713 Y56.592 E-.05923
G1 X99.713 Y57.921 E-.73674
;WIPE_END
G1 Z.4 F720
G1 X86.571 Y51.34 F9000
G1 Z.2 F720
G1 E3.2 F2400
M204 P600
;WIDTH:0.419999
G1 F1200
G1 X87.038 Y51.653 E.01763
G1 X87.47 Y52.03 E.01798
G1 X87.847 Y52.462 E.01798
G1 X88.21 Y53.012 E.02066
;WIDTH:0.417063
G1 X87.989 Y52.782 E.00992
;WIDTH:0.419999
G1 X87.721 Y52.713 E.00868
G1 X86.787 Y52.713 E.02928
G1 X86.787 Y51.779 E.02928
G1 X86.718 Y51.511 E.00868
;WIDTH:0.416176
G1 X86.61 Y51.386 E.00513
M204 P1000
G1 E-2.24 F4200
;WIPE_START
G1 F7200
G1 X87.038 Y51.653 E-.27955
G1 X87.47 Y52.03 E-.31774
G1 X87.847 Y52.462 E-.31774
G1 X87.892 Y52.53 E-.04497
;WIPE_END
G1 Z.4 F720
G1 X82.512 Y51.29 F9000
G1 Z.2 F720
G1 E3.2 F2400
M204 P600
;WIDTH:0.416829
G1 F1200
G1 X82.769 Y51.161 E.00894
;WIDTH:0.422654
G1 X83.323 Y50.959 E.01862
G1 X83.914 Y50.832 E.01909
;WIDTH:0.443105
G1 X84.514 Y50.802 E.01999
G1 X85.112 Y50.836 E.01993
;WIDTH:0.422697
G1 X85.694 Y50.964 E.01882
G1 X86.488 Y51.29 E.0271
;WIDTH:0.416853
G1 X86.221 Y51.214 E.00863
;WIDTH:0.422697
G1 X85.072 Y51.212 E.03628
;WIDTH:0.443105
G1 X83.928 Y51.212 E.03807
;WIDTH:0.422654
G1 X82.779 Y51.215 E.03628
;WIDTH:0.416829
G1 X82.569 Y51.274 E.00678
M204 P1000
G1 X82.235 Y51.692 F9000
M204 P600
;WIDTH:0.419999
G1 F1200
G1 X82.213 Y51.779 E.00281
G1 X82.213 Y52.713 E.02928
G1 X81.279 Y52.713 E.02928
G1 X81.011 Y52.782 E.00868
;WIDTH:0.417039
G1 X80.79 Y53.012 E.00992
;WIDTH:0.419999
G1 X81.153 Y52.462 E.02066
G1 X81.53 Y52.03 E.01798
G1 X81.962 Y51.653 E.01798
G1 X82.429 Y51.34 E.01763
;WIDTH:0.416193
G1 X82.282 Y51.512 E.00702
;WIDTH:0.419999
G1 X82.25 Y51.633 E.00392
M204 P1000
G1 X82.59 Y51.779 F9000
M204 P600
;TYPE:External perimeter
G1 F1200
G1 X82.661 Y51.631 E.00515
G1 X82.779 Y51.59 E.00392
G1 X86.221 Y51.59 E.10792
G1 X86.339 Y51.631 E.00392
G1 X86.41 Y51.779 E.00515
G1 X86.41 Y53.09 E.04111
G1 X87.721 Y53.09 E.04111
G1 X87.811 Y53.113 E.00291
M73 P14 R4
G1 X87.9 Y53.218 E.00432
G1 X87.91 Y56.721 E.10983
G1 X87.837 Y56.871 E.00523
G1 X87.725 Y56.91 E.00372
G1 X86.41 Y56.91 E.04123
G1 X86.41 Y58.221 E.04111
G1 X86.333 Y58.373 E.00534
G1 X86.221 Y58.41 E.0037
G1 X82.779 Y58.41 E.10792
G1 X82.667 Y58.373 E.0037
G1 X82.59 Y58.221 E.00534
G1 X82.59 Y56.91 E.04111
G1 X81.279 Y56.91 E.04111
G1 X81.163 Y56.871 E.00384
G1 X81.09 Y56.721 E.00523
G1 X81.09 Y53.279 E.10792
G1 X81.113 Y53.188 E.00294
G1 X81.189 Y53.113 E.00335
G1 X81.813 Y53.09 E.01958
G1 X82.59 Y53.09 E.02436
G1 X82.59 Y51.839 E.03922
M204 P1000
G1 X82.502 Y51.641 F9000
G1 E-2.24 F4200
;WIPE_START
G1 F7200
G1 X82.661 Y51.631 E-.1218
G1 X82.779 Y51.59 E-.06923
G1 X84.167 Y51.59 E-.76897
;WIPE_END
G1 Z.4 F720
G1 X99.128 Y55.927 F9000
G1 Z.2 F720
G1 E3.2 F2400
M204 P600
G1 F1200
G1 X99.181 Y56.093 E.00546
G1 X99.128 Y56.194 E.00358
G1 X96.694 Y58.628 E.10793
G1 X96.553 Y58.684 E.00476
G1 X96.427 Y58.628 E.00432
G1 X95.5 Y57.701 E.0411
G1 X94.573 Y58.628 E.0411
G1 X94.447 Y58.684 E.00432
G1 X94.306 Y58.628 E.00476
G1 X91.872 Y56.194 E.10793
G1 X91.816 Y56.061 E.00452
G1 X91.872 Y55.927 E.00455
G1 X92.799 Y55 E.0411
G1 X91.872 Y54.073 E.0411
G1 X91.821 Y53.897 E.00575
G1 X92.068 Y53.609 E.0119
G1 X94.306 Y51.372 E.09921
G1 X94.399 Y51.321 E.00333
G1 X94.573 Y51.372 E.00569
G1 X95.5 Y52.299 E.0411
G1 X96.427 Y51.372 E.0411
G1 X96.603 Y51.321 E.00575
G1 X96.891 Y51.568 E.0119
G1 X99.128 Y53.806 E.09921
G1 X99.184 Y53.932 E.00432
G1 X99.128 Y54.073 E.00476
G1 X98.201 Y55 E.0411
G1 X99.086 Y55.885 E.03924
M204 P1000
G1 X99.294 Y55.982 F9000
G1 E-2.24 F4200
;WIPE_START
G1 F7200
G1 X99.181 Y56.093 E-.12672
G1 X99.128 Y56.194 E-.06321
G1 X98.145 Y57.177 E-.77007
;WIPE_END
G1 Z.4 F720
G1 X90.721 Y90.41 F9000
G1 Z.2 F720
M73 P15 R4
G1 E3.2 F2400
M204 P600
G1 F1200
G1 X90.854 Y90.355 E.00451
G1 X90.91 Y90.221 E.00455
G1 X90.91 Y55.529 E1.08774
G1 X90.915 Y54.944 E.01834
G1 X90.966 Y54.31 E.01994
G1 X91.132 Y53.614 E.02243
G1 X91.341 Y53.065 E.01842
G1 X91.663 Y52.488 E.02072
G1 X92.061 Y51.965 E.02061
G1 X92.528 Y51.507 E.02051
G1 X93.053 Y51.121 E.02043
G1 X93.624 Y50.814 E.02033
G1 X94.24 Y50.59 E.02055
G1 X94.915 Y50.453 E.0216
G1 X95.556 Y50.415 E.02013
G1 X96.189 Y50.466 E.01991
G1 X96.886 Y50.632 E.02247
G1 X97.435 Y50.841 E.01842
G1 X98.012 Y51.163 E.02072
G1 X98.534 Y51.561 E.02058
G1 X98.993 Y52.028 E.02053
G1 X99.379 Y52.553 E.02043
G1 X99.685 Y53.124 E.02031
G1 X99.931 Y53.836 E.02362
G1 X100.047 Y54.415 E.01851
G1 X100.09 Y55.041 E.01967
G1 X100.09 Y100.753 E1.43327
G1 X100.053 Y101.598 E.02652
M73 P16 R4
G1 X99.944 Y102.427 E.02622
G1 X99.763 Y103.244 E.02624
G1 X99.509 Y104.05 E.0265
G1 X90.294 Y129.367 E.84474
G1 X90.159 Y129.556 E.00728
M73 P17 R4
G1 X89.848 Y129.564 E.00975
G1 X89.725 Y129.42 E.00594
G1 X80.491 Y104.05 E.84651
G1 X80.237 Y103.244 E.0265
G1 X80.056 Y102.427 E.02624
G1 X79.947 Y101.598 E.02622
G1 X79.91 Y100.753 E.02652
G1 X79.91 Y55.015 E1.43408
G1 X79.958 Y54.348 E.02097
M73 P18 R4
G1 X80.097 Y53.708 E.02053
G1 X80.325 Y53.094 E.02054
G1 X80.639 Y52.519 E.02054
G1 X81.032 Y51.995 E.02054
G1 X81.495 Y51.532 E.02053
G1 X82.019 Y51.14 E.02052
G1 X82.593 Y50.826 E.02051
G1 X83.207 Y50.597 E.02055
G1 X83.847 Y50.458 E.02053
G1 X84.5 Y50.411 E.02053
G1 X85.153 Y50.458 E.02053
G1 X85.793 Y50.597 E.02053
G1 X86.406 Y50.826 E.02052
G1 X86.981 Y51.139 E.02053
G1 X87.505 Y51.532 E.02054
G1 X87.968 Y51.995 E.02053
G1 X88.36 Y52.519 E.02052
G1 X88.674 Y53.094 E.02054
G1 X88.903 Y53.707 E.02052
G1 X89.042 Y54.347 E.02053
G1 X89.09 Y55.015 E.021
G1 X89.09 Y90.221 E1.10386
G1 X89.146 Y90.355 E.00455
M73 P19 R4
G1 X89.279 Y90.41 E.00451
G1 X90.661 Y90.41 E.04333
M204 P1000
G1 X90.822 Y90.513 F9000
G1 E-2.24 F4200
;WIPE_START
G1 F7200
G1 X90.854 Y90.355 E-.11121
G1 X90.91 Y90.221 E-.08048
G1 X90.91 Y88.835 E-.76831
;WIPE_END
G1 Z.4 F720
G1 X99.52 Y53.744 F9000
G1 Z.2 F720
G1 E3.2 F2400
M204 P600
;TYPE:Perimeter
;WIDTH:0.422288
G1 F1200
G1 X99.561 Y53.916 E.00558
M204 P1000
G1 E-2.24 F4200
;WIPE_START
G1 F7200
G1 X99.52 Y53.744 E-.09799
;WIPE_END
G1 E-.86201 F4200
G1 Z.4 F720
G1 X96.584 Y50.938 F9000
G1 Z.2 F720
G1 E3.2 F2400
M204 P600
;WIDTH:0.422356
G1 F1200
G1 X96.846 Y51.018 E.00864
M204 P1000
G1 E-2.24 F4200
;WIPE_START
G1 F7200
G1 X96.584 Y50.938 E-.15181
;WIPE_END
G1 E-.80819 F4200
G1 Z.4 F720
