; generated by PrusaSlicer 2.6.0+win64 on 2023-07-10 at 13:03:24 UTC


;
;

;
;
; 

; external perimeters extrusion width = 0.45mm
; perimeters extrusion width = 0.45mm
; infill extrusion width = 0.45mm
; solid infill extrusion width = 0.45mm
; top infill extrusion width = 0.40mm
; first layer extrusion width = 0.42mm

M73 P0 R5
M201 X2500 Y2500 Z400 E5000 ; sets maximum accelerations, mm/sec^2
M203 X180 Y180 Z12 E80 ; sets maximum feedrates, mm / sec
M204 P2000 R1250 T2500 ; sets acceleration (P, T) and retract acceleration (R), mm/sec^2
M205 X8.00 Y8.00 Z2.00 E10.00 ; sets the jerk limits, mm/sec
M205 S0 T0 ; sets the minimum extruding and travel feed rate, mm/sec
;TYPE:Custom
M862.3 P "MINI" ; printer model check
G90 ; use absolute coordinates
M83 ; extruder relative mode
M104 S170 ; set extruder temp for bed leveling
M140 S60 ; set bed temp
M109 R170 ; wait for bed leveling temp
M190 S60 ; wait for bed temp
M204 T1250 ; set travel acceleration
G28 ; home all without mesh bed level
G29 ; mesh bed leveling 
M204 T2500 ; restore travel acceleration
M104 S215 ; set extruder temp
G92 E0
G1 Y-2 X179 F2400
G1 Z3 F720
M109 S215 ; wait for extruder temp

; intro line
M73 P1 R5
G1 X170 F1000
G1 Z0.2 F720
G1 X110 E8 F900
G1 X40 E10 F700
G92 E0

M221 S95 ; set flow
G21 ; set units to millimeters
G90 ; use absolute coordinates
M83 ; use relative distances for extrusion
M900 K0.2 ; Filament gcode LA 1.5
; ; Filament gcode LA 1.0
M107
;LAYER_CHANGE
;Z:0.2
;HEIGHT:0.2
;BEFORE_LAYER_CHANGE
G92 E0.0
;0.2


M73 P2 R5
G1 E-3.2 F4200
M73 P4 R5
G1 Z.2 F720
;AFTER_LAYER_CHANGE
;0.2
G1 Z.4
G1 X82.455 Y82.338 F9000
G1 Z.2 F720
M73 P5 R5
G1 E3.2 F2400
M204 P600
;TYPE:Skirt/Brim
;WIDTH:0.42
G1 F1200
G1 X83.96 Y81.103 E.06104
G1 X84.929 Y80.517 E.03551
G1 X86.109 Y79.975 E.04071
G1 X88.144 Y79.408 E.06624
G1 X90.131 Y79.249 E.0625
G1 X91.379 Y79.336 E.03923
G1 X92.493 Y79.54 E.03551
G1 X94.337 Y80.16 E.061
G1 X96.04 Y81.103 E.06104
G1 X97.662 Y82.455 E.06621
G1 X98.897 Y83.96 E.06104
G1 X99.56 Y85.077 E.04073
G1 X100.025 Y86.109 E.03549
G1 X100.562 Y87.98 E.06103
G1 X100.753 Y90.083 E.06621
G1 X100.685 Y91.214 E.03553
G1 X100.511 Y92.256 E.03312
G1 X100.241 Y93.278 E.03314
G1 X99.84 Y94.337 E.0355
G1 X98.897 Y96.04 E.06104
G1 X97.545 Y97.662 E.06621
G1 X96.04 Y98.897 E.06104
G1 X94.923 Y99.56 E.04073
G1 X93.891 Y100.025 E.03549
G1 X92.02 Y100.562 E.06103
G1 X89.917 Y100.753 E.06621
G1 X88.786 Y100.685 E.03553
G1 X87.744 Y100.511 E.03312
G1 X86.722 Y100.241 E.03314
G1 X85.663 Y99.84 E.0355
G1 X83.96 Y98.897 E.06104
G1 X82.338 Y97.545 E.06621
G1 X81.103 Y96.04 E.06104
G1 X80.44 Y94.923 E.04073
G1 X79.975 Y93.891 E.03549
G1 X79.438 Y92.02 E.06103
M73 P6 R5
G1 X79.247 Y89.917 E.06621
G1 X79.438 Y87.98 E.06103
G1 X79.709 Y86.88 E.03552
G1 X80.16 Y85.663 E.04069
G1 X81.103 Y83.96 E.06104
G1 X82.417 Y82.384 E.06434
M204 P1000
G1 X82.705 Y82.623 F9000
M204 P600
G1 F1200
G1 X84.165 Y81.42 E.05932
G1 X85.242 Y80.779 E.0393
G1 X86.253 Y80.324 E.03476
G1 X88.2 Y79.781 E.06338
G1 X90.12 Y79.625 E.0604
G1 X91.322 Y79.708 E.03778
G1 X92.413 Y79.908 E.03478
M73 P6 R4
G1 X94.193 Y80.509 E.05891
G1 X95.953 Y81.502 E.06336
G1 X97.388 Y82.714 E.05889
G1 X98.58 Y84.165 E.05888
G1 X99.154 Y85.114 E.03477
G1 X99.676 Y86.253 E.03928
G1 X100.193 Y88.059 E.0589
G1 X100.376 Y90.072 E.06338
G1 X100.193 Y91.941 E.05888
G1 X99.885 Y93.155 E.03927
G1 X99.491 Y94.193 E.03481
G1 X98.58 Y95.835 E.05888
G1 X97.286 Y97.388 E.06338
G1 X95.835 Y98.58 E.05888
G1 X94.886 Y99.154 E.03477
G1 X93.747 Y99.676 E.03928
G1 X91.941 Y100.193 E.0589
G1 X89.928 Y100.376 E.06338
G1 X88.059 Y100.193 E.05888
G1 X86.845 Y99.885 E.03927
G1 X85.807 Y99.491 E.03481
G1 X84.165 Y98.58 E.05888
G1 X82.612 Y97.286 E.06338
G1 X81.42 Y95.835 E.05888
G1 X80.779 Y94.758 E.0393
M73 P7 R4
G1 X80.324 Y93.747 E.03476
G1 X79.807 Y91.941 E.0589
G1 X79.624 Y89.928 E.06338
G1 X79.807 Y88.059 E.05888
G1 X80.115 Y86.845 E.03927
G1 X80.509 Y85.807 E.03481
G1 X81.42 Y84.165 E.05888
G1 X82.666 Y82.67 E.06102
M204 P1000
; printing object stick-bottom-stabilisation.stl id:0 copy 0
G1 E-2.24 F4200
;WIPE_START
G1 F7200
G1 X83.996 Y81.561 E-.96
;WIPE_END
G1 Z.4 F720
G1 X84.201 Y85.729 F9000
G1 Z.2 F720
G1 E3.2 F2400
M204 P600
;TYPE:Perimeter
;WIDTH:0.419999
G1 F1200
G1 X84.323 Y85.552 E.00674
G1 X84.9 Y84.9 E.0273
G1 X85.552 Y84.323 E.0273
G1 X86.269 Y83.828 E.02732
G1 X87.04 Y83.424 E.02729
G1 X87.854 Y83.115 E.0273
G1 X88.7 Y82.906 E.02732
G1 X89.491 Y82.81 E.02498
G1 X90.032 Y82.789 E.01698
G1 X90.869 Y82.841 E.02629
G1 X91.726 Y82.998 E.02732
G1 X92.557 Y83.257 E.02729
G1 X93.351 Y83.614 E.0273
G1 X94.097 Y84.065 E.02733
G1 X94.782 Y84.602 E.02729
G1 X95.398 Y85.218 E.02731
G1 X95.935 Y85.903 E.02729
G1 X96.386 Y86.649 E.02733
G1 X96.61 Y87.147 E.01712
G1 X96.858 Y87.817 E.0224
G1 X97.028 Y88.409 E.01931
G1 X97.165 Y89.231 E.02613
G1 X97.206 Y90.103 E.02737
G1 X97.159 Y90.869 E.02406
G1 X97.002 Y91.726 E.02732
G1 X96.743 Y92.557 E.02729
G1 X96.386 Y93.351 E.0273
G1 X95.935 Y94.097 E.02733
G1 X95.398 Y94.782 E.02729
G1 X94.782 Y95.398 E.02731
G1 X94.097 Y95.935 E.02729
G1 X93.351 Y96.386 E.02733
G1 X92.558 Y96.743 E.02727
G1 X91.686 Y97.011 E.0286
G1 X90.87 Y97.159 E.026
G1 X90 Y97.212 E.02733
G1 X89.131 Y97.159 E.0273
G1 X88.274 Y97.002 E.02732
G1 X87.443 Y96.743 E.02729
G1 X86.649 Y96.386 E.0273
G1 X85.903 Y95.935 E.02733
G1 X85.218 Y95.398 E.02729
G1 X84.602 Y94.782 E.02731
G1 X84.065 Y94.097 E.02729
G1 X83.648 Y93.407 E.02528
G1 X83.411 Y92.93 E.0167
G1 X83.115 Y92.146 E.02628
G1 X82.906 Y91.3 E.02732
G1 X82.801 Y90.435 E.02732
G1 X82.801 Y89.565 E.02728
G1 X82.906 Y88.7 E.02732
G1 X83.115 Y87.854 E.02732
M73 P8 R4
G1 X83.424 Y87.04 E.0273
G1 X83.828 Y86.269 E.02729
G1 X84.167 Y85.779 E.01868
M204 P1000
G1 X83.89 Y85.515 F9000
M204 P600
;TYPE:External perimeter
G1 F1200
G1 X84.026 Y85.319 E.00748
G1 X84.633 Y84.633 E.02872
G1 X85.319 Y84.026 E.02872
G1 X86.074 Y83.505 E.02876
G1 X86.885 Y83.079 E.02872
G1 X87.742 Y82.754 E.02874
G1 X88.632 Y82.535 E.02874
G1 X89.445 Y82.436 E.02568
G1 X90.039 Y82.412 E.01864
G1 X90.915 Y82.466 E.02752
G1 X91.816 Y82.631 E.02872
G1 X92.691 Y82.904 E.02874
G1 X93.527 Y83.28 E.02874
G1 X94.311 Y83.754 E.02873
G1 X95.033 Y84.319 E.02875
G1 X95.681 Y84.967 E.02873
G1 X96.246 Y85.689 E.02875
G1 X96.72 Y86.473 E.02873
G1 X97.047 Y87.199 E.02497
G1 X97.219 Y87.706 E.01679
G1 X97.399 Y88.342 E.02072
G1 X97.542 Y89.208 E.02752
G1 X97.582 Y90.126 E.02881
G1 X97.534 Y90.915 E.02478
G1 X97.369 Y91.816 E.02872
G1 X97.096 Y92.691 E.02874
G1 X96.72 Y93.527 E.02874
G1 X96.246 Y94.311 E.02873
G1 X95.681 Y95.033 E.02875
G1 X95.033 Y95.681 E.02873
G1 X94.311 Y96.246 E.02875
G1 X93.527 Y96.72 E.02873
G1 X92.692 Y97.096 E.02871
G1 X91.776 Y97.378 E.03005
G1 X90.915 Y97.534 E.02744
G1 X90 Y97.59 E.02874
G1 X89.085 Y97.534 E.02874
G1 X88.184 Y97.369 E.02872
G1 X87.309 Y97.096 E.02874
G1 X86.473 Y96.72 E.02874
G1 X85.689 Y96.246 E.02873
G1 X84.967 Y95.681 E.02875
G1 X84.319 Y95.033 E.02873
G1 X83.754 Y94.311 E.02875
G1 X83.325 Y93.602 E.02598
G1 X83.064 Y93.079 E.01833
G1 X82.754 Y92.258 E.02752
G1 X82.535 Y91.368 E.02874
G1 X82.424 Y90.458 E.02874
G1 X82.424 Y89.542 E.02872
G1 X82.535 Y88.632 E.02874
G1 X82.754 Y87.742 E.02874
G1 X83.079 Y86.885 E.02874
G1 X83.505 Y86.074 E.02872
G1 X83.856 Y85.565 E.01939
M204 P1000
G1 X84.128 Y85.529 F9000
G1 E-2.24 F4200
;WIPE_START
G1 F7200
G1 X84.026 Y85.319 E-.16571
G1 X84.633 Y84.633 E-.50761
G1 X85.02 Y84.29 E-.28668
;WIPE_END
G1 Z.4 F720
G1 X88.247 Y86.235 F9000
G1 Z.2 F720
G1 E3.2 F2400
M204 P600
;TYPE:Perimeter
G1 F1200
G1 X89.001 Y86.213 E.02365
G1 X91.721 Y86.213 E.08528
G1 X92.014 Y86.294 E.00953
G1 X92.142 Y86.4 E.00521
G1 X92.278 Y86.677 E.00968
M73 P9 R4
G1 X92.287 Y87.713 E.03248
G1 X93.221 Y87.713 E.02928
G1 X93.467 Y87.769 E.00791
G1 X93.706 Y87.986 E.01012
G1 X93.783 Y88.208 E.00737
G1 X93.787 Y91.721 E.11015
G1 X93.706 Y92.014 E.00953
G1 X93.6 Y92.142 E.00521
G1 X93.323 Y92.278 E.00968
G1 X92.287 Y92.287 E.03248
G1 X92.287 Y93.221 E.02928
G1 X92.231 Y93.467 E.00791
G1 X92.014 Y93.706 E.01012
G1 X91.792 Y93.783 E.00737
G1 X88.279 Y93.787 E.11015
G1 X88.022 Y93.726 E.00828
G1 X87.872 Y93.614 E.00587
G1 X87.738 Y93.388 E.00824
G1 X87.713 Y92.287 E.03453
G1 X86.779 Y92.287 E.02928
G1 X86.533 Y92.231 E.00791
G1 X86.352 Y92.093 E.00714
G1 X86.238 Y91.889 E.00733
G1 X86.213 Y90.999 E.02792
G1 X86.213 Y88.279 E.08528
G1 X86.278 Y88.016 E.00849
G1 X86.456 Y87.814 E.00844
G1 X86.677 Y87.722 E.00751
G1 X87.713 Y87.713 E.03248
G1 X87.713 Y86.779 E.02928
G1 X87.738 Y86.612 E.00529
G1 X87.882 Y86.376 E.00867
G1 X88.11 Y86.239 E.00834
G1 X88.187 Y86.236 E.00242
M204 P1000
G1 X88.279 Y86.59 F9000
M204 P600
;TYPE:External perimeter
G1 F1200
G1 X91.721 Y86.59 E.10792
G1 X91.862 Y86.652 E.00483
G1 X91.91 Y86.779 E.00426
G1 X91.91 Y88.09 E.04111
G1 X93.221 Y88.09 E.04111
G1 X93.352 Y88.143 E.00443
G1 X93.41 Y88.279 E.00464
G1 X93.41 Y91.721 E.10792
G1 X93.348 Y91.862 E.00483
G1 X93.221 Y91.91 E.00426
G1 X91.91 Y91.91 E.04111
G1 X91.91 Y93.221 E.04111
G1 X91.857 Y93.352 E.00443
G1 X91.721 Y93.41 E.00464
G1 X88.279 Y93.41 E.10792
G1 X88.143 Y93.352 E.00464
G1 X88.09 Y93.221 E.00443
G1 X88.09 Y91.91 E.04111
G1 X86.779 Y91.91 E.04111
G1 X86.636 Y91.845 E.00493
G1 X86.59 Y91.675 E.00552
G1 X86.59 Y88.279 E.10648
G1 X86.627 Y88.166 E.00373
G1 X86.779 Y88.09 E.00533
G1 X88.09 Y88.09 E.04111
G1 X88.09 Y86.779 E.04111
G1 X88.146 Y86.644 E.00458
G1 X88.223 Y86.613 E.0026
M204 P1000
G1 X88.382 Y86.204 F9000
G1 E-2.24 F4200
;WIPE_START
G1 F7200
G1 X89.955 Y86.602 E-.96
;WIPE_END
G1 Z.4 F720
G1 X95.945 Y86.247 F9000
G1 Z.2 F720
G1 E3.2 F2400
M204 P600
;TYPE:Solid infill
;WIDTH:0.423882
G1 F1200
G1 X94.544 Y84.846 E.06276
G1 X93.904 Y84.345 E.02575
M73 P10 R4
G1 X93.193 Y83.915 E.02632
G1 X92.977 Y83.818 E.0075
G1 X96.182 Y87.023 E.14358
G1 X96.425 Y87.562 E.01873
G1 X96.532 Y87.912 E.01159
G1 X92.085 Y83.465 E.19922
G1 X91.645 Y83.328 E.0146
G1 X91.356 Y83.275 E.00931
G1 X96.726 Y88.645 E.24057
G1 X96.829 Y89.286 E.02057
G1 X90.714 Y83.171 E.27394
G1 X90.139 Y83.136 E.01825
G1 X96.863 Y89.859 E.3012
G1 X96.849 Y90.384 E.01664
G1 X89.604 Y83.139 E.32456
G1 X89.123 Y83.197 E.01535
G1 X91.805 Y85.879 E.12015
G1 X92.087 Y85.95 E.00921
G1 X92.196 Y86.007 E.0039
G1 X92.395 Y86.172 E.00819
G1 X92.535 Y86.38 E.00794
G1 X92.589 Y86.518 E.00469
G1 X92.615 Y86.688 E.00545
G1 X93.312 Y87.385 E.03122
G1 X93.482 Y87.411 E.00545
G1 X93.621 Y87.465 E.00472
G1 X93.853 Y87.628 E.00898
G1 X94.045 Y87.899 E.01052
G1 X94.1 Y88.058 E.00533
G1 X94.117 Y88.19 E.00422
G1 X96.811 Y90.885 E.12071
G1 X96.728 Y91.34 E.01465
M73 P11 R4
G1 X94.126 Y88.739 E.11654
G1 X94.126 Y89.278 E.01707
G1 X96.63 Y91.781 E.11215
G1 X96.502 Y92.192 E.01364
G1 X94.126 Y89.816 E.10644
G1 X94.126 Y90.355 E.01707
G1 X96.358 Y92.587 E.09999
G1 X96.191 Y92.958 E.01289
G1 X94.126 Y90.894 E.09249
G1 X94.126 Y91.433 E.01707
G1 X96.01 Y93.317 E.0844
G1 X95.807 Y93.652 E.01241
G1 X94.093 Y91.938 E.07678
G1 X94.048 Y92.094 E.00514
G1 X93.916 Y92.3 E.00775
G1 X95.596 Y93.98 E.07526
G1 X95.359 Y94.282 E.01216
G1 X93.615 Y92.537 E.07815
G1 X93.482 Y92.589 E.00452
G1 X93.165 Y92.626 E.01011
G1 X95.12 Y94.581 E.08758
G1 X94.85 Y94.85 E.01207
G1 X92.626 Y92.627 E.09961
G1 X92.626 Y93.165 E.01704
G1 X94.581 Y95.12 E.08758
G1 X94.282 Y95.359 E.01213
G1 X92.537 Y93.615 E.07815
G1 X92.372 Y93.853 E.00917
G1 X92.293 Y93.909 E.00307
G1 X93.98 Y95.596 E.07557
G1 X93.652 Y95.807 E.01235
G1 X91.944 Y94.099 E.07652
G1 X91.731 Y94.126 E.0068
G1 X91.433 Y94.126 E.00944
G1 X93.316 Y96.01 E.08438
G1 X92.958 Y96.191 E.01271
G1 X90.894 Y94.126 E.09249
G1 X90.355 Y94.126 E.01707
G1 X92.586 Y96.358 E.09997
M73 P12 R4
G1 X92.438 Y96.425 E.00515
G1 X92.191 Y96.501 E.00819
G1 X89.816 Y94.126 E.1064
G1 X89.278 Y94.126 E.01704
G1 X91.778 Y96.627 E.11202
G1 X91.606 Y96.68 E.0057
G1 X91.341 Y96.729 E.00854
G1 X88.569 Y93.957 E.12418
M204 P1000
G1 X87.543 Y92.931 F9000
M204 P600
G1 F1200
G1 X87.069 Y92.457 E.02123
M204 P1000
G1 E-2.24 F4200
;WIPE_START
G1 F7200
G1 X87.543 Y92.931 E-.37148
;WIPE_END
G1 E-.58852 F4200
G1 Z.4 F720
G1 X92.457 Y87.069 F9000
G1 Z.2 F720
G1 E3.2 F2400
M204 P600
G1 F1200
G1 X92.931 Y87.543 E.02123
M204 P1000
G1 E-2.24 F4200
;WIPE_START
G1 F7200
G1 X92.457 Y87.069 E-.37148
;WIPE_END
G1 E-.58852 F4200
G1 Z.4 F720
G1 X91.431 Y86.043 F9000
G1 Z.2 F720
G1 E3.2 F2400
M204 P600
G1 F1200
G1 X88.655 Y83.267 E.12436
G1 X88.222 Y83.374 E.01413
G1 X90.722 Y85.874 E.112
G1 X90.184 Y85.874 E.01704
G1 X87.806 Y83.496 E.10653
G1 X87.415 Y83.644 E.01324
G1 X89.645 Y85.874 E.0999
G1 X89.106 Y85.874 E.01707
G1 X87.04 Y83.807 E.09258
G1 X86.686 Y83.993 E.01267
G1 X88.567 Y85.874 E.08427
G1 X88.267 Y85.874 E.0095
G1 X88.06 Y85.905 E.00663
G1 X86.344 Y84.189 E.07687
G1 X86.025 Y84.409 E.01228
G1 X87.703 Y86.087 E.07517
G1 X87.534 Y86.261 E.00768
M73 P13 R4
G1 X87.47 Y86.392 E.00462
G1 X85.712 Y84.635 E.07873
G1 X85.427 Y84.888 E.01207
G1 X87.383 Y86.844 E.08763
G1 X87.376 Y87.374 E.01679
G1 X85.141 Y85.141 E.10008
G1 X84.888 Y85.427 E.0121
G1 X86.835 Y87.374 E.08722
G1 X86.511 Y87.412 E.01033
G1 X86.392 Y87.47 E.00419
G1 X84.635 Y85.712 E.07873
G1 X84.409 Y86.025 E.01223
G1 X86.087 Y87.703 E.07517
G1 X85.974 Y87.862 E.00618
G1 X85.905 Y88.06 E.00664
G1 X84.189 Y86.344 E.07687
G1 X83.993 Y86.686 E.01249
G1 X85.874 Y88.567 E.08427
G1 X85.874 Y89.106 E.01707
G1 X83.807 Y87.04 E.09258
G1 X83.644 Y87.416 E.01298
G1 X85.874 Y89.645 E.09988
G1 X85.874 Y90.184 E.01707
G1 X83.496 Y87.806 E.10653
G1 X83.439 Y87.956 E.00508
G1 X83.374 Y88.222 E.00867
G1 X85.874 Y90.722 E.112
G1 X85.874 Y91.261 E.01707
G1 X83.267 Y88.655 E.11677
G1 X83.197 Y89.123 E.01499
G1 X85.886 Y91.812 E.12046
G1 X85.912 Y91.988 E.00564
G1 X86.003 Y92.191 E.00705
G1 X86.15 Y92.375 E.00746
G1 X86.379 Y92.535 E.00885
G1 X86.518 Y92.589 E.00472
G1 X86.688 Y92.615 E.00545
G1 X87.385 Y93.312 E.03122
G1 X87.411 Y93.482 E.00545
G1 X87.465 Y93.621 E.00472
G1 X87.625 Y93.85 E.00885
G1 X87.811 Y93.998 E.00753
G1 X88.053 Y94.099 E.00831
G1 X88.19 Y94.117 E.00438
G1 X90.885 Y96.811 E.12071
G1 X90.383 Y96.849 E.01595
G1 X83.141 Y89.606 E.32445
G1 X83.141 Y90.145 E.01707
M73 P14 R4
G1 X89.859 Y96.863 E.30095
G1 X89.286 Y96.829 E.01818
G1 X83.178 Y90.721 E.27363
G1 X83.268 Y91.35 E.02013
G1 X88.643 Y96.725 E.24079
G1 X88.355 Y96.672 E.00928
G1 X87.914 Y96.535 E.01463
G1 X83.448 Y92.069 E.20007
G1 X83.723 Y92.797 E.02465
G1 X83.803 Y92.962 E.00581
G1 X87.023 Y96.182 E.14425
G1 X86.806 Y96.085 E.00753
G1 X86.096 Y95.655 E.02629
G1 X85.456 Y95.153 E.02577
G1 X84.055 Y93.753 E.06274
M204 P1000
; stop printing object stick-bottom-stabilisation.stl id:0 copy 0
M106 S84.15
;LAYER_CHANGE
;Z:0.4
;HEIGHT:0.2
;BEFORE_LAYER_CHANGE
G92 E0.0
;0.4


G1 E-2.24 F4200
;WIPE_START
G1 F7200
G1 X85.28 Y94.978 E-.96
;WIPE_END
G1 Z.4 F720
;AFTER_LAYER_CHANGE
;0.4
M104 S210 ; set temperature
G1 Z.6
G1 X82.812 Y97.94 F9000
G1 Z.4 F720
G1 E3.2 F2400
;TYPE:Skirt/Brim
;WIDTH:0.42
G1 X82.338 Y97.545 E.01935
G1 X81.103 Y96.04 E.06104
G1 X80.44 Y94.923 E.04073
G1 X79.975 Y93.891 E.03549
G1 X79.438 Y92.02 E.06103
G1 X79.247 Y89.917 E.06621
M73 P15 R4
G1 X79.438 Y87.98 E.06103
G1 X79.709 Y86.88 E.03552
G1 X80.16 Y85.663 E.04069
G1 X81.103 Y83.96 E.06104
G1 X82.455 Y82.338 E.06621
G1 X83.96 Y81.103 E.06104
G1 X84.929 Y80.517 E.03551
G1 X86.109 Y79.975 E.04071
G1 X88.144 Y79.408 E.06624
G1 X90.131 Y79.249 E.0625
G1 X91.379 Y79.336 E.03923
G1 X92.493 Y79.54 E.03551
G1 X94.337 Y80.16 E.061
G1 X96.04 Y81.103 E.06104
G1 X97.662 Y82.455 E.06621
G1 X98.897 Y83.96 E.06104
G1 X99.56 Y85.077 E.04073
G1 X100.025 Y86.109 E.03549
G1 X100.562 Y87.98 E.06103
G1 X100.753 Y90.083 E.06621
G1 X100.685 Y91.214 E.03553
G1 X100.511 Y92.256 E.03312
G1 X100.241 Y93.278 E.03314
G1 X99.84 Y94.337 E.0355
G1 X98.897 Y96.04 E.06104
G1 X97.545 Y97.662 E.06621
G1 X96.04 Y98.897 E.06104
G1 X94.923 Y99.56 E.04073
G1 X93.891 Y100.025 E.03549
G1 X92.02 Y100.562 E.06103
G1 X89.917 Y100.753 E.06621
G1 X88.786 Y100.685 E.03553
G1 X87.744 Y100.511 E.03312
G1 X86.722 Y100.241 E.03314
G1 X85.663 Y99.84 E.0355
G1 X83.96 Y98.897 E.06104
G1 X82.858 Y97.978 E.04499
