; generated by PrusaSlicer 2.6.0+win64 on 2023-07-10 at 11:00:33 UTC


;
;

;
;
; 

; external perimeters extrusion width = 0.45mm
; perimeters extrusion width = 0.45mm
; infill extrusion width = 0.45mm
; solid infill extrusion width = 0.45mm
; top infill extrusion width = 0.40mm
; first layer extrusion width = 0.42mm

; external perimeters extrusion width = 0.45mm
; perimeters extrusion width = 0.45mm
; infill extrusion width = 0.45mm
; solid infill extrusion width = 0.45mm
; top infill extrusion width = 0.40mm
; first layer extrusion width = 0.42mm

; external perimeters extrusion width = 0.45mm
; perimeters extrusion width = 0.45mm
; infill extrusion width = 0.45mm
; solid infill extrusion width = 0.45mm
; top infill extrusion width = 0.40mm
; first layer extrusion width = 0.42mm

M73 P0 R18
M201 X2500 Y2500 Z400 E5000 ; sets maximum accelerations, mm/sec^2
M203 X180 Y180 Z12 E80 ; sets maximum feedrates, mm / sec
M204 P2000 R1250 T2500 ; sets acceleration (P, T) and retract acceleration (R), mm/sec^2
M205 X8.00 Y8.00 Z2.00 E10.00 ; sets the jerk limits, mm/sec
M205 S0 T0 ; sets the minimum extruding and travel feed rate, mm/sec
;TYPE:Custom
M862.3 P "MINI" ; printer model check
G90 ; use absolute coordinates
M83 ; extruder relative mode
M104 S170 ; set extruder temp for bed leveling
M140 S60 ; set bed temp
M109 R170 ; wait for bed leveling temp
M190 S60 ; wait for bed temp
M204 T1250 ; set travel acceleration
G28 ; home all without mesh bed level
G29 ; mesh bed leveling 
M204 T2500 ; restore travel acceleration
M104 S215 ; set extruder temp
G92 E0
G1 Y-2 X179 F2400
G1 Z3 F720
M109 S215 ; wait for extruder temp

; intro line
G1 X170 F1000
G1 Z0.2 F720
G1 X110 E8 F900
G1 X40 E10 F700
G92 E0

M221 S95 ; set flow
G21 ; set units to millimeters
G90 ; use absolute coordinates
M83 ; use relative distances for extrusion
M900 K0.2 ; Filament gcode LA 1.5
; ; Filament gcode LA 1.0
M107
;LAYER_CHANGE
;Z:0.2
;HEIGHT:0.2
;BEFORE_LAYER_CHANGE
G92 E0.0
;0.2


G1 E-3.2 F4200
M73 P1 R18
G1 Z.2 F720
;AFTER_LAYER_CHANGE
;0.2
G1 Z.4
G1 X71.7 Y71.966 F9000
G1 Z.2 F720
G1 E3.2 F2400
M204 P600
;TYPE:Skirt/Brim
;WIDTH:0.42
G1 F1200
G1 X94.936 Y48.816 E1.02842
G1 X96.614 Y48.123 E.05692
G1 X116.458 Y48.123 E.62219
G1 X117.765 Y48.515 E.04278
G1 X118.641 Y49.56 E.04275
G1 X118.834 Y50.433 E.02803
G1 X120.934 Y124.433 E2.32115
G1 X120.75 Y125.42 E.03148
M73 P2 R18
G1 X118.65 Y130.42 E.17004
G1 X117.782 Y131.474 E.04281
G1 X116.458 Y131.877 E.04339
G1 X96.614 Y131.877 E.62219
G1 X95.079 Y131.316 E.05124
G1 X63.59 Y104.71 E1.29256
G1 X63.02 Y104.117 E.02579
G1 X59.452 Y98.137 E.21834
G1 X59.095 Y97.123 E.03371
G1 X59.095 Y87.643 E.29724
G1 X59.452 Y86.629 E.03371
G1 X62.702 Y81.098 E.20114
G1 X63.242 Y80.393 E.02784
G1 X71.657 Y72.009 E.37245
M204 P1000
; printing object pot-bottom.stl id:0 copy 0
G1 E-2.24 F4200
;WIPE_START
G1 F7200
G1 X72.884 Y70.786 E-.96
;WIPE_END
G1 Z.4 F720
G1 X85.665 Y96.885 F9000
G1 Z.2 F720
G1 E3.2 F2400
M204 P600
;TYPE:Perimeter
;WIDTH:0.419999
G1 F1200
G1 X85.647 Y96.962 E.00248
G1 X85.647 Y101.239 E.1341
G1 X85.616 Y101.552 E.00986
G1 X85.52 Y101.88 E.01072
G1 X85.337 Y102.165 E.01062
G1 X85.08 Y102.388 E.01067
G1 X84.771 Y102.529 E.01065
G1 X84.406 Y102.596 E.01164
G1 X66.579 Y102.596 E.55895
G1 X66.265 Y102.565 E.00989
G1 X65.938 Y102.469 E.01069
G1 X65.653 Y102.286 E.01062
G1 X65.43 Y102.029 E.01067
G1 X65.288 Y101.72 E.01066
G1 X65.221 Y101.355 E.01164
G1 X65.213 Y96.863 E.14084
G1 X65.138 Y96.667 E.00658
G1 X64.918 Y96.46 E.00947
G1 X64.656 Y96.396 E.00846
G1 X62.222 Y96.396 E.07632
G1 X62.233 Y88.37 E.25165
G1 X64.656 Y88.37 E.07597
G1 X64.786 Y88.355 E.0041
G1 X65.001 Y88.253 E.00746
G1 X65.165 Y88.05 E.00818
G1 X65.221 Y87.805 E.00788
G1 X65.221 Y83.527 E.13413
G1 X65.252 Y83.214 E.00986
G1 X65.348 Y82.887 E.01069
G1 X65.531 Y82.601 E.01065
G1 X65.788 Y82.379 E.01065
G1 X66.098 Y82.237 E.01069
G1 X66.462 Y82.17 E.0116
G1 X70.954 Y82.162 E.14084
G1 X71.151 Y82.087 E.00661
G1 X71.357 Y81.866 E.00947
G1 X71.421 Y81.605 E.00843
G1 X71.421 Y79.182 E.07597
G1 X79.447 Y79.182 E.25165
G1 X79.447 Y81.605 E.07597
G1 X79.463 Y81.736 E.00414
G1 X79.565 Y81.95 E.00743
G1 X79.767 Y82.114 E.00816
G1 X80.013 Y82.17 E.00791
G1 X84.29 Y82.17 E.1341
G1 X84.603 Y82.201 E.00986
G1 X84.931 Y82.297 E.01072
G1 X85.216 Y82.48 E.01062
G1 X85.439 Y82.737 E.01067
G1 X85.58 Y83.047 E.01068
G1 X85.647 Y83.411 E.0116
G1 X85.656 Y87.903 E.14084
G1 X85.73 Y88.099 E.00657
G1 X85.951 Y88.306 E.00949
G1 X86.213 Y88.37 E.00846
G1 X88.635 Y88.37 E.07594
G1 X88.635 Y96.396 E.25165
G1 X86.213 Y96.396 E.07594
G1 X86.082 Y96.411 E.00413
G1 X85.868 Y96.514 E.00745
G1 X85.703 Y96.716 E.00818
G1 X85.678 Y96.827 E.00357
M204 P1000
G1 X86.024 Y96.962 F9000
M204 P600
;TYPE:External perimeter
G1 F1200
G1 X86.024 Y101.239 E.1341
G1 X85.957 Y101.83 E.01865
M73 P3 R18
G1 X85.77 Y102.241 E.01416
G1 X85.474 Y102.583 E.01418
G1 X85.094 Y102.827 E.01416
G1 X84.877 Y102.891 E.00709
G1 X84.42 Y102.973 E.01456
G1 X66.579 Y102.973 E.55939
G1 X65.987 Y102.906 E.01868
G1 X65.576 Y102.719 E.01416
G1 X65.234 Y102.423 E.01418
G1 X64.99 Y102.043 E.01416
G1 X64.927 Y101.826 E.00708
G1 X64.844 Y101.369 E.01456
G1 X64.844 Y96.962 E.13818
G1 X64.797 Y96.837 E.00419
G1 X64.656 Y96.773 E.00486
G1 X62.018 Y96.773 E.08271
G1 X61.884 Y96.733 E.00438
G1 X61.844 Y96.633 E.00338
G1 X61.856 Y88.075 E.26833
G1 X61.974 Y87.993 E.00451
G1 X64.656 Y87.993 E.08409
G1 X64.797 Y87.929 E.00486
G1 X64.844 Y87.805 E.00416
G1 X64.844 Y83.527 E.13413
G1 X64.911 Y82.936 E.01865
G1 X65.099 Y82.525 E.01417
G1 X65.395 Y82.183 E.01418
G1 X65.775 Y81.939 E.01416
G1 X65.991 Y81.875 E.00706
G1 X66.449 Y81.793 E.01459
G1 X70.856 Y81.793 E.13818
G1 X70.98 Y81.746 E.00416
G1 X71.044 Y81.605 E.00486
G1 X71.044 Y78.964 E.08281
G1 X71.113 Y78.805 E.00543
G1 X79.743 Y78.805 E.27059
G1 X79.824 Y78.923 E.00449
G1 X79.824 Y81.605 E.08409
G1 X79.888 Y81.746 E.00486
G1 X80.013 Y81.793 E.00419
G1 X84.29 Y81.793 E.1341
G1 X84.882 Y81.86 E.01868
G1 X85.292 Y82.048 E.01414
G1 X85.634 Y82.344 E.01418
G1 X85.878 Y82.724 E.01416
G1 X85.942 Y82.94 E.00706
G1 X86.024 Y83.398 E.01459
G1 X86.024 Y87.805 E.13818
G1 X86.071 Y87.929 E.00416
G1 X86.213 Y87.993 E.00488
G1 X88.878 Y87.993 E.08356
G1 X88.963 Y88.011 E.00272
G1 X89.012 Y88.115 E.0036
G1 X89.012 Y96.692 E.26893
G1 X88.895 Y96.773 E.00446
G1 X86.213 Y96.773 E.08409
G1 X86.071 Y96.837 E.00488
G1 X86.045 Y96.906 E.00231
M204 P1000
G1 X85.638 Y97.065 F9000
G1 E-2.24 F4200
;WIPE_START
G1 F7200
G1 X86.037 Y98.638 E-.96
;WIPE_END
G1 Z.4 F720
G1 X77.698 Y95.691 F9000
G1 Z.2 F720
G1 E3.2 F2400
M204 P600
;TYPE:Perimeter
G1 F1200
G1 X77.642 Y95.894 E.0066
G1 X77.491 Y96.06 E.00704
G1 X77.253 Y96.162 E.00812
G1 X73.713 Y96.17 E.11099
G1 X73.476 Y96.118 E.00761
G1 X73.297 Y95.988 E.00694
G1 X73.161 Y95.73 E.00914
G1 X73.147 Y94.67 E.03324
G1 X72.213 Y94.67 E.02928
G1 X71.924 Y94.591 E.00939
G1 X71.73 Y94.399 E.00856
G1 X71.656 Y94.203 E.00657
G1 X71.647 Y93.244 E.03007
G1 X71.647 Y90.662 E.08096
G1 X71.703 Y90.416 E.00791
G1 X71.73 Y90.367 E.00175
G1 X71.944 Y90.164 E.00925
G1 X72.213 Y90.096 E.0087
G1 X73.147 Y90.096 E.02928
G1 X73.147 Y89.162 E.02928
G1 X73.227 Y88.873 E.0094
G1 X73.418 Y88.679 E.00854
G1 X73.615 Y88.605 E.0066
G1 X74.574 Y88.596 E.03007
G1 X77.156 Y88.596 E.08096
G1 X77.401 Y88.652 E.00788
G1 X77.587 Y88.796 E.00738
G1 X77.707 Y89.036 E.00841
G1 X77.721 Y90.096 E.03324
G1 X78.656 Y90.096 E.02932
G1 X78.945 Y90.176 E.0094
G1 X79.138 Y90.367 E.00851
G1 X79.213 Y90.563 E.00658
G1 X79.221 Y91.522 E.03007
G1 X79.221 Y94.105 E.08099
G1 X79.165 Y94.35 E.00788
G1 X79.022 Y94.536 E.00736
G1 X78.781 Y94.656 E.00844
G1 X77.721 Y94.67 E.03324
G1 X77.714 Y95.633 E.03019
M204 P1000
G1 X77.344 Y95.605 F9000
M204 P600
;TYPE:External perimeter
G1 F1200
G1 X77.294 Y95.732 E.00428
G1 X77.156 Y95.793 E.00473
G1 X73.713 Y95.793 E.10795
G1 X73.574 Y95.732 E.00476
G1 X73.524 Y95.605 E.00428
G1 X73.524 Y94.293 E.04114
G1 X72.213 Y94.293 E.04111
G1 X72.071 Y94.229 E.00488
G1 X72.024 Y94.105 E.00416
G1 X72.024 Y90.662 E.10795
G1 X72.052 Y90.563 E.00323
G1 X72.171 Y90.478 E.00459
G1 X72.213 Y90.473 E.00133
G1 X73.524 Y90.473 E.04111
G1 X73.524 Y89.162 E.04111
G1 X73.588 Y89.02 E.00488
G1 X73.713 Y88.973 E.00419
G1 X77.156 Y88.973 E.10795
G1 X77.299 Y89.04 E.00495
G1 X77.344 Y89.162 E.00408
G1 X77.344 Y90.473 E.04111
G1 X78.656 Y90.473 E.04114
G1 X78.797 Y90.537 E.00486
G1 X78.844 Y90.662 E.00419
G1 X78.844 Y94.105 E.10795
G1 X78.778 Y94.248 E.00494
G1 X78.656 Y94.293 E.00408
G1 X77.344 Y94.293 E.04114
G1 X77.344 Y95.545 E.03926
M204 P1000
G1 X77.414 Y95.722 F9000
G1 E-2.24 F4200
;WIPE_START
G1 F7200
G1 X77.294 Y95.732 E-.10727
G1 X77.156 Y95.793 E-.08361
G1 X75.768 Y95.793 E-.76912
;WIPE_END
G1 Z.4 F720
G1 X79.277 Y80.21 F9000
G1 Z.2 F720
G1 E3.2 F2400
M204 P600
;TYPE:Solid infill
;WIDTH:0.420437
G1 F1200
G1 X78.589 Y79.521 E.03056
G1 X78.055 Y79.521 E.01676
G1 X79.108 Y80.574 E.04675
G1 X79.108 Y81.108 E.01676
G1 X77.352 Y79.352 E.07795
M204 P1000
G1 E-2.24 F4200
;WIPE_START
G1 F7200
G1 X78.577 Y80.577 E-.96
;WIPE_END
G1 Z.4 F720
G1 X85.468 Y83.73 F9000
G1 Z.2 F720
G1 E3.2 F2400
M204 P600
G1 F1200
G1 X84.247 Y82.51 E.05418
G1 X83.713 Y82.51 E.01676
G1 X85.299 Y84.096 E.07041
G1 X85.3 Y84.631 E.01679
G1 X83.179 Y82.51 E.09416
G1 X82.645 Y82.51 E.01676
G1 X85.301 Y85.166 E.11791
G1 X85.303 Y85.701 E.01679
G1 X82.111 Y82.51 E.14168
G1 X81.577 Y82.51 E.01676
G1 X85.304 Y86.236 E.16543
G1 X85.305 Y86.771 E.01679
G1 X81.043 Y82.51 E.18918
G1 X80.51 Y82.51 E.01673
G1 X85.477 Y87.477 E.2205
M204 P1000
G1 E-2.24 F4200
;WIPE_START
M73 P4 R18
G1 F7200
G1 X84.252 Y86.252 E-.96
;WIPE_END
G1 Z.4 F720
G1 X87.608 Y88.54 F9000
G1 Z.2 F720
G1 E3.2 F2400
M204 P600
G1 F1200
G1 X88.296 Y89.228 E.03054
G1 X88.296 Y89.762 E.01676
G1 X87.243 Y88.71 E.04672
G1 X86.71 Y88.71 E.01673
G1 X88.296 Y90.296 E.07041
G1 X88.296 Y90.83 E.01676
G1 X86.172 Y88.706 E.09429
G1 X86.005 Y88.686 E.00528
G1 X85.846 Y88.633 E.00526
G1 X85.661 Y88.523 E.00676
G1 X85.534 Y88.404 E.00546
G1 X85.438 Y88.274 E.00507
G1 X85.34 Y88.05 E.00768
G1 X85.312 Y87.846 E.00646
G1 X79.97 Y82.504 E.23715
G1 X79.692 Y82.453 E.00887
G1 X79.418 Y82.288 E.01004
G1 X79.294 Y82.156 E.00569
G1 X79.185 Y81.971 E.00674
G1 X79.131 Y81.812 E.00527
G1 X79.112 Y81.645 E.00528
G1 X76.988 Y79.521 E.09429
G1 X76.454 Y79.521 E.01676
G1 X88.296 Y91.364 E.52573
G1 X88.296 Y91.898 E.01676
G1 X75.92 Y79.521 E.54943
G1 X75.386 Y79.521 E.01676
G1 X88.296 Y92.431 E.57312
G1 X88.296 Y92.965 E.01676
G1 X74.852 Y79.521 E.59682
G1 X74.318 Y79.521 E.01676
G1 X88.296 Y93.499 E.62053
G1 X88.296 Y94.033 E.01676
G1 X73.784 Y79.521 E.64423
G1 X73.25 Y79.521 E.01676
G1 X88.296 Y94.567 E.66794
G1 X88.296 Y95.101 E.01676
G1 X72.716 Y79.521 E.69164
G1 X72.183 Y79.521 E.01673
G1 X88.296 Y95.635 E.71533
G1 X88.296 Y96.057 E.01325
G1 X88.184 Y96.057 E.00352
G1 X71.761 Y79.633 E.72909
G1 X71.761 Y80.167 E.01676
M73 P5 R18
G1 X87.65 Y96.057 E.70538
G1 X87.116 Y96.057 E.01676
M73 P5 R17
G1 X71.761 Y80.701 E.68168
G1 X71.761 Y81.235 E.01676
G1 X86.582 Y96.057 E.65797
G1 X86.065 Y96.073 E.01624
G1 X71.744 Y81.753 E.63573
G1 X71.684 Y81.971 E.0071
G1 X71.589 Y82.131 E.00584
G1 X85.686 Y96.228 E.62581
G1 X85.534 Y96.362 E.00636
G1 X85.431 Y96.507 E.00558
G1 X79.559 Y90.635 E.26068
G1 X79.547 Y90.501 E.00422
G1 X79.472 Y90.268 E.00768
G1 X79.338 Y90.066 E.00761
G1 X79.236 Y89.966 E.00448
G1 X78.97 Y89.811 E.00966
G1 X78.683 Y89.759 E.00916
G1 X78.058 Y89.134 E.02775
G1 X78.008 Y88.852 E.00899
G1 X77.918 Y88.672 E.00632
G1 X77.753 Y88.48 E.00795
G1 X77.477 Y88.313 E.01013
G1 X77.183 Y88.259 E.00938
G1 X71.302 Y82.378 E.26108
G1 X71.177 Y82.453 E.00458
G1 X70.895 Y82.505 E.009
G1 X76.647 Y88.257 E.25535
G1 X76.113 Y88.257 E.01676
G1 X70.367 Y82.511 E.25508
G1 X69.834 Y82.512 E.01673
G1 X75.579 Y88.257 E.25504
G1 X75.045 Y88.257 E.01676
G1 X69.302 Y82.513 E.25497
G1 X68.769 Y82.515 E.01673
G1 X74.511 Y88.257 E.25491
G1 X73.977 Y88.257 E.01676
G1 X68.236 Y82.516 E.25486
G1 X67.704 Y82.517 E.0167
G1 X73.475 Y88.288 E.25619
G1 X73.239 Y88.389 E.00806
G1 X73.132 Y88.48 E.00441
G1 X67.171 Y82.518 E.26465
G1 X66.639 Y82.52 E.0167
G1 X72.894 Y88.775 E.27768
G1 X72.829 Y88.961 E.00618
M73 P6 R17
G1 X72.808 Y89.223 E.00825
G1 X66.158 Y82.573 E.29521
G1 X66.075 Y82.598 E.00272
G1 X65.869 Y82.73 E.00768
G1 X65.828 Y82.777 E.00196
G1 X72.808 Y89.757 E.30986
G1 X72.274 Y89.757 E.01676
G1 X65.622 Y83.104 E.29533
G1 X65.561 Y83.455 E.01118
G1 X65.561 Y83.577 E.00383
G1 X71.83 Y89.846 E.2783
G1 X71.723 Y89.899 E.00375
G1 X71.524 Y90.075 E.00834
G1 X65.561 Y84.111 E.26474
G1 X65.561 Y84.645 E.01676
G1 X71.347 Y90.432 E.25688
G1 X71.308 Y90.648 E.00689
G1 X71.308 Y90.926 E.00873
G1 X65.561 Y85.179 E.25513
G1 X65.561 Y85.713 E.01676
G1 X71.308 Y91.46 E.25513
G1 X71.308 Y91.994 E.01676
G1 X65.561 Y86.247 E.25513
G1 X65.561 Y86.781 E.01676
G1 X71.308 Y92.528 E.25513
G1 X71.308 Y93.062 E.01676
G1 X65.561 Y87.315 E.25513
G1 X65.557 Y87.844 E.01661
G1 X71.477 Y93.765 E.26283
M204 P1000
G1 E-2.24 F4200
;WIPE_START
G1 F7200
G1 X70.252 Y92.54 E-.96
;WIPE_END
G1 Z.4 F720
G1 X72.552 Y94.84 F9000
G1 Z.2 F720
G1 E3.2 F2400
M204 P600
G1 F1200
G1 X72.977 Y95.265 E.01887
M204 P1000
G1 E-2.24 F4200
;WIPE_START
G1 F7200
G1 X72.552 Y94.84 E-.33308
;WIPE_END
G1 E-.62692 F4200
G1 Z.4 F720
G1 X78.316 Y89.926 F9000
G1 Z.2 F720
G1 E3.2 F2400
M204 P600
G1 F1200
G1 X77.891 Y89.501 E.01887
M204 P1000
G1 E-2.24 F4200
;WIPE_START
G1 F7200
G1 X78.316 Y89.926 E-.33308
;WIPE_END
G1 E-.62692 F4200
G1 Z.4 F720
G1 X79.391 Y91.001 F9000
G1 Z.2 F720
G1 E3.2 F2400
M204 P600
G1 F1200
G1 X85.312 Y96.922 E.26285
G1 X85.308 Y97.452 E.01664
G1 X79.561 Y91.705 E.25513
G1 X79.561 Y92.239 E.01676
G1 X85.308 Y97.986 E.25513
G1 X85.308 Y98.519 E.01673
G1 X79.561 Y92.772 E.25513
G1 X79.561 Y93.306 E.01676
G1 X85.308 Y99.053 E.25513
G1 X85.308 Y99.587 E.01676
G1 X79.561 Y93.84 E.25513
G1 X79.561 Y94.115 E.00863
G1 X79.529 Y94.343 E.00723
G1 X85.308 Y100.121 E.25653
G1 X85.308 Y100.655 E.01676
G1 X79.344 Y94.691 E.26476
G1 X79.145 Y94.867 E.00834
G1 X79.039 Y94.92 E.00372
G1 X85.308 Y101.189 E.2783
G1 X85.308 Y101.311 E.00383
G1 X85.247 Y101.662 E.01118
G1 X78.595 Y95.01 E.2953
G1 X78.061 Y95.01 E.01676
M73 P7 R17
G1 X85.04 Y101.989 E.30982
G1 X85 Y102.036 E.00194
G1 X84.793 Y102.169 E.00772
G1 X84.71 Y102.193 E.00271
G1 X78.061 Y95.544 E.29517
G1 X78.008 Y95.913 E.0117
G1 X77.972 Y95.988 E.00261
G1 X84.24 Y102.257 E.27828
G1 X83.706 Y102.257 E.01676
G1 X77.741 Y96.291 E.26483
G1 X77.534 Y96.427 E.00777
G1 X77.391 Y96.476 E.00475
G1 X83.172 Y102.257 E.25664
G1 X82.638 Y102.257 E.01676
G1 X76.891 Y96.51 E.25513
G1 X76.357 Y96.51 E.01676
G1 X82.104 Y102.257 E.25513
G1 X81.571 Y102.257 E.01673
G1 X75.823 Y96.51 E.25515
G1 X75.29 Y96.51 E.01673
G1 X81.037 Y102.257 E.25513
G1 X80.503 Y102.257 E.01676
G1 X74.756 Y96.51 E.25513
G1 X74.222 Y96.51 E.01676
G1 X79.969 Y102.257 E.25513
G1 X79.435 Y102.257 E.01676
G1 X73.686 Y96.508 E.25522
G1 X73.517 Y96.489 E.00534
G1 X73.334 Y96.427 E.00607
G1 X73.175 Y96.334 E.00578
G1 X73.047 Y96.218 E.00542
G1 X72.948 Y96.091 E.00505
G1 X72.861 Y95.914 E.00619
G1 X72.81 Y95.632 E.009
G1 X72.185 Y95.007 E.02775
G1 X71.898 Y94.956 E.00915
G1 X71.633 Y94.801 E.00964
G1 X71.53 Y94.7 E.00453
G1 X71.396 Y94.498 E.00761
G1 X71.321 Y94.266 E.00765
G1 X71.31 Y94.131 E.00425
G1 X65.437 Y88.259 E.2607
G1 X65.334 Y88.404 E.00558
G1 X65.182 Y88.538 E.00636
G1 X78.901 Y102.257 E.60903
G1 X78.367 Y102.257 E.01676
G1 X64.804 Y88.693 E.60213
G1 X64.286 Y88.71 E.01627
G1 X77.833 Y102.257 E.60139
G1 X77.299 Y102.257 E.01676
G1 X63.752 Y88.71 E.60139
G1 X63.218 Y88.71 E.01676
G1 X76.766 Y102.257 E.60142
G1 X76.232 Y102.257 E.01676
G1 X62.685 Y88.71 E.60139
G1 X62.572 Y88.71 E.00355
M73 P8 R17
G1 X62.571 Y89.13 E.01318
G1 X75.698 Y102.257 E.58275
G1 X75.164 Y102.257 E.01676
G1 X62.57 Y89.663 E.55909
G1 X62.57 Y90.196 E.01673
G1 X74.63 Y102.257 E.5354
G1 X74.096 Y102.257 E.01676
G1 X62.569 Y90.729 E.51174
G1 X62.568 Y91.263 E.01676
G1 X73.562 Y102.257 E.48806
G1 X73.028 Y102.257 E.01676
G1 X62.567 Y91.796 E.4644
