; generated by PrusaSlicer 2.6.0+win64 on 2023-07-10 at 07:52:25 UTC


;
;

;
;
; 

; external perimeters extrusion width = 0.45mm
; perimeters extrusion width = 0.45mm
; infill extrusion width = 0.45mm
; solid infill extrusion width = 0.45mm
; top infill extrusion width = 0.40mm
; support material extrusion width = 0.35mm
; first layer extrusion width = 0.42mm

; external perimeters extrusion width = 0.45mm
; perimeters extrusion width = 0.45mm
; infill extrusion width = 0.45mm
; solid infill extrusion width = 0.45mm
; top infill extrusion width = 0.40mm
; support material extrusion width = 0.35mm
; first layer extrusion width = 0.42mm

; external perimeters extrusion width = 0.45mm
; perimeters extrusion width = 0.45mm
; infill extrusion width = 0.45mm
; solid infill extrusion width = 0.45mm
; top infill extrusion width = 0.40mm
; support material extrusion width = 0.35mm
; first layer extrusion width = 0.42mm

M73 P0 R35
M201 X2500 Y2500 Z400 E5000 ; sets maximum accelerations, mm/sec^2
M203 X180 Y180 Z12 E80 ; sets maximum feedrates, mm / sec
M204 P2000 R1250 T2500 ; sets acceleration (P, T) and retract acceleration (R), mm/sec^2
M205 X8.00 Y8.00 Z2.00 E10.00 ; sets the jerk limits, mm/sec
M205 S0 T0 ; sets the minimum extruding and travel feed rate, mm/sec
;TYPE:Custom
M862.3 P "MINI" ; printer model check
G90 ; use absolute coordinates
M83 ; extruder relative mode
M104 S170 ; set extruder temp for bed leveling
M140 S60 ; set bed temp
M109 R170 ; wait for bed leveling temp
M190 S60 ; wait for bed temp
M204 T1250 ; set travel acceleration
G28 ; home all without mesh bed level
G29 ; mesh bed leveling 
M204 T2500 ; restore travel acceleration
M104 S215 ; set extruder temp
G92 E0
G1 Y-2 X179 F2400
G1 Z3 F720
M109 S215 ; wait for extruder temp

; intro line
G1 X170 F1000
G1 Z0.2 F720
G1 X110 E8 F900
G1 X40 E10 F700
G92 E0

M221 S95 ; set flow
G21 ; set units to millimeters
G90 ; use absolute coordinates
M83 ; use relative distances for extrusion
M900 K0.2 ; Filament gcode LA 1.5
; ; Filament gcode LA 1.0
M107
;LAYER_CHANGE
;Z:0.2
;HEIGHT:0.2
;BEFORE_LAYER_CHANGE
G92 E0.0
;0.2


G1 E-3.2 F4200
M73 P0 R34
G1 Z.2 F720
;AFTER_LAYER_CHANGE
;0.2
G1 Z.4
G1 X60.726 Y67.285 F9000
G1 Z.2 F720
G1 E3.2 F2400
M204 P600
;TYPE:Skirt/Brim
;WIDTH:0.42
G1 F1200
G1 X61.567 Y66.575 E.03451
G1 X63.045 Y65.547 E.05645
G1 X64.539 Y64.743 E.0532
G1 X65.516 Y64.325 E.03332
G1 X67.13 Y63.801 E.05321
G1 X68.166 Y63.564 E.03332
G1 X69.847 Y63.337 E.05318
G1 X70.947 Y63.29 E.03452
G1 X72.639 Y63.368 E.05311
G1 X111.559 Y66.873 E1.22525
G1 X117.037 Y67.917 E.17485
G1 X117.774 Y68.197 E.02472
G1 X119.116 Y68.982 E.04875
G1 X120.432 Y69.999 E.05215
G1 X125.119 Y74.073 E.19471
G1 X126.068 Y75.145 E.04489
G1 X126.756 Y76.159 E.03842
G1 X126.993 Y76.605 E.01584
G1 X127.724 Y78.527 E.06447
G1 X128.054 Y80.4 E.05963
G1 X128.043 Y82.09 E.05299
G1 X127.713 Y83.932 E.05867
G1 X127.505 Y84.531 E.01988
G1 X126.542 Y86.43 E.06676
G1 X108.518 Y114.135 E1.03632
G1 X107.763 Y115.179 E.0404
M73 P1 R34
G1 X107.358 Y115.611 E.01857
G1 X106.249 Y116.513 E.04482
G1 X102.627 Y118.897 E.13596
G1 X102.079 Y119.164 E.01911
G1 X98.613 Y120.332 E.11468
G1 X97.469 Y120.425 E.03599
G1 X95.787 Y120.148 E.05345
G1 X78.447 Y116.999 E.55258
G1 X73.7 Y115.932 E.15255
G1 X73.143 Y115.733 E.01855
G1 X69.908 Y114.178 E.11254
G1 X68.746 Y112.953 E.05294
G1 X56.647 Y84.001 E.98385
G1 X56.146 Y82.379 E.05323
G1 X55.926 Y81.34 E.0333
G1 X55.715 Y79.513 E.05767
G1 X55.715 Y77.816 E.05321
G1 X55.81 Y76.758 E.03331
G1 X56.113 Y75.088 E.05322
G1 X56.433 Y73.954 E.03694
G1 X57.049 Y72.345 E.05402
G1 X57.831 Y70.839 E.05321
G1 X58.403 Y69.944 E.0333
G1 X59.535 Y68.494 E.05768
G1 X60.684 Y67.328 E.05133
M204 P1000
; printing object top-plate.stl id:0 copy 0
G1 E-2.24 F4200
;WIPE_START
G1 F7200
G1 X61.567 Y66.575 E-.6431
G1 X62.036 Y66.248 E-.3169
;WIPE_END
G1 Z.4 F720
G1 X69.253 Y74.901 F9000
G1 Z.2 F720
G1 E3.2 F2400
M204 P600
;TYPE:Perimeter
;WIDTH:0.455502
G1 F1200
G1 X69.207 Y74.913 E.00163
;WIDTH:0.491004
G1 X69.068 Y74.95 E.00536
;WIDTH:0.526506
G1 X68.928 Y74.986 E.00581
G1 X68.819 Y75.139 E.00755
;WIDTH:0.512739
G1 X68.771 Y75.233 E.00412
G1 X68.77 Y75.338 E.0041
;WIDTH:0.476948
G1 X68.77 Y75.443 E.00379
;WIDTH:0.441156
G1 X68.78 Y76.377 E.03093
;WIDTH:0.419999
G1 X67.846 Y76.377 E.02928
;WIDTH:0.42052
G1 X67.356 Y76.66 E.01777
G1 X67.682 Y76.094 E.02051
;WIDTH:0.441156
G1 X68.164 Y75.281 E.0313
;WIDTH:0.483831
G1 X68.36 Y74.984 E.01305
;WIDTH:0.526506
G1 X68.556 Y74.687 E.01431
G1 X68.659 Y74.473 E.00955
;WIDTH:0.491004
G1 X68.762 Y74.259 E.00885
;WIDTH:0.455502
G1 X68.865 Y74.045 E.00815
;WIDTH:0.419999
G1 X70.174 Y71.777 E.08211
G1 X70.242 Y71.586 E.00636
G1 X69.943 Y70.991 E.02088
G1 X69.731 Y70.882 E.00747
G1 X72.36 Y70.884 E.08243
G1 X72.192 Y70.993 E.00628
G1 X71.895 Y71.587 E.02082
G1 X71.963 Y71.777 E.00633
G1 X73.27 Y74.043 E.08202
;WIDTH:0.466654
G1 X73.456 Y74.412 E.01456
;WIDTH:0.513309
G1 X73.642 Y74.781 E.01616
G1 X73.807 Y75.031 E.01172
;WIDTH:0.477287
G1 X73.972 Y75.28 E.01079
;WIDTH:0.441265
G1 X74.453 Y76.093 E.03129
;WIDTH:0.429974
G1 X74.726 Y76.577 E.01788
G1 X74.289 Y76.377 E.01547
;WIDTH:0.419999
G1 X73.354 Y76.377 E.02932
G1 X73.354 Y75.915 E.01449
;WIDTH:0.466654
G1 X73.359 Y75.574 E.01202
;WIDTH:0.513309
G1 X73.364 Y75.233 E.01334
G1 X73.258 Y75.05 E.00827
G1 X73.023 Y74.964 E.00979
;WIDTH:0.466654
G1 X72.789 Y74.877 E.0088
;WIDTH:0.419999
G1 X69.346 Y74.877 E.10795
;WIDTH:0.455502
G1 X69.311 Y74.886 E.00124
M204 P1000
G1 E-2.24 F4200
;WIPE_START
G1 F7200
G1 X69.207 Y74.913 E-.05954
G1 X69.068 Y74.95 E-.07971
G1 X68.928 Y74.986 E-.08011
G1 X68.819 Y75.139 E-.1041
G1 X68.771 Y75.233 E-.05849
G1 X68.77 Y75.338 E-.05819
G1 X68.77 Y75.443 E-.05819
G1 X68.779 Y76.276 E-.46167
;WIPE_END
G1 Z.4 F720
G1 X67.826 Y70.856 F9000
G1 Z.2 F720
G1 E3.2 F2400
M204 P600
;WIDTH:0.419999
G1 F1200
G1 X67.542 Y71.258 E.01543
G1 X67.098 Y71.966 E.0262
G1 X63.141 Y78.821 E.24817
G1 X62.657 Y79.702 E.03152
G1 X60.842 Y76.553 E.11396
G1 X60.734 Y76.418 E.00542
G1 X60.538 Y76.301 E.00716
G1 X60.328 Y76.27 E.00666
G1 X60.024 Y76.372 E.01005
G1 X59.422 Y76.731 E.02198
G1 X58.926 Y77.097 E.01933
G1 X59.204 Y75.766 E.04263
G1 X59.397 Y75.065 E.0228
G1 X59.633 Y74.373 E.02292
G1 X59.911 Y73.697 E.02292
G1 X60.228 Y73.039 E.0229
G1 X60.583 Y72.4 E.02292
G1 X60.977 Y71.785 E.0229
G1 X61.406 Y71.194 E.0229
G1 X61.87 Y70.629 E.02292
G1 X62.367 Y70.094 E.0229
G1 X62.899 Y69.585 E.02309
G1 X63.622 Y68.951 E.03015
G1 X63.599 Y69.135 E.00581
G1 X63.574 Y69.895 E.02384
G1 X63.573 Y70.444 E.01721
G1 X63.681 Y70.675 E.008
G1 X63.926 Y70.854 E.00951
G1 X64.127 Y70.89 E.0064
G1 X66.521 Y70.886 E.07506
G1 X67.766 Y70.858 E.03905
M204 P1000
G1 E-2.24 F4200
;WIPE_START
G1 F7200
G1 X67.542 Y71.258 E-.25406
G1 X67.098 Y71.966 E-.46312
G1 X66.879 Y72.345 E-.24282
;WIPE_END
G1 Z.4 F720
G1 X58.857 Y79.058 F9000
G1 Z.2 F720
G1 E3.2 F2400
M204 P600
G1 F1200
G1 X64.615 Y89.031 E.36107
G1 X64.037 Y88.651 E.02169
G1 X63.453 Y88.212 E.02291
G1 X62.895 Y87.74 E.02292
G1 X62.367 Y87.235 E.02291
G1 X61.87 Y86.699 E.02292
G1 X61.406 Y86.135 E.0229
G1 X60.977 Y85.544 E.0229
G1 X60.583 Y84.928 E.02293
G1 X60.228 Y84.29 E.02289
G1 X59.911 Y83.632 E.0229
G1 X59.633 Y82.956 E.02292
G1 X59.397 Y82.264 E.02292
G1 X59.203 Y81.56 E.0229
G1 X59.051 Y80.845 E.02292
G1 X58.942 Y80.125 E.02283
G1 X58.862 Y79.118 E.03167
M204 P1000
G1 E-2.24 F4200
;WIPE_START
G1 F7200
G1 X59.732 Y80.616 E-.96
;WIPE_END
G1 Z.4 F720
G1 X64.028 Y81.525 F9000
G1 Z.2 F720
G1 E3.2 F2400
M204 P600
G1 F1200
G1 X64.516 Y81.498 E.01532
G1 X64.655 Y81.338 E.00665
G1 X65.483 Y79.904 E.05192
;WIDTH:0.424368
G1 X67.206 Y76.924 E.10918
;WIDTH:0.429096
G1 X67.31 Y76.747 E.00659
G1 X67.278 Y76.943 E.00638
;WIDTH:0.424368
G1 X67.28 Y80.386 E.1092
;WIDTH:0.419999
G1 X67.374 Y80.698 E.01022
G1 X67.48 Y80.817 E.005
G1 X67.846 Y80.951 E.01222
G1 X68.78 Y80.951 E.02928
G1 X68.78 Y81.886 E.02932
G1 X68.898 Y82.232 E.01146
;WIDTH:0.445103
G1 X69.346 Y82.464 E.01687
;WIDTH:0.446054
G1 X72.789 Y82.464 E.11541
;WIDTH:0.451967
G1 X72.889 Y82.459 E.00341
G1 X73.236 Y82.232 E.0141
;WIDTH:0.419999
G1 X73.354 Y81.886 E.01146
G1 X73.354 Y80.951 E.02932
G1 X74.289 Y80.951 E.02932
G1 X74.577 Y80.873 E.00936
G1 X74.76 Y80.698 E.00794
G1 X74.854 Y80.386 E.01022
;WIDTH:0.420325
G1 X74.855 Y76.943 E.10805
;WIDTH:0.42139
G1 X74.779 Y76.66 E.00922
G1 X74.931 Y76.922 E.00953
;WIDTH:0.420325
G1 X76.652 Y79.904 E.10805
;WIDTH:0.419999
G1 X77.478 Y81.336 E.05183
G1 X77.618 Y81.497 E.00669
G1 X78.27 Y81.531 E.02047
G1 X78.511 Y81.38 E.00892
G1 X77.292 Y83.485 E.07627
G1 X77.136 Y83.799 E.01099
G1 X77.15 Y83.447 E.01105
G1 X76.794 Y82.923 E.01986
G1 X76.584 Y82.883 E.0067
G1 X73.554 Y82.881 E.095
;WIDTH:0.446054
G1 X69.346 Y82.866 E.14106
;WIDTH:0.445103
G1 X68.581 Y82.878 E.02559
;WIDTH:0.419999
G1 X65.555 Y82.883 E.09488
G1 X65.34 Y82.923 E.00686
G1 X64.985 Y83.471 E.02047
G1 X64.997 Y83.768 E.00932
G1 X63.612 Y81.374 E.08672
G1 X63.868 Y81.533 E.00945
G1 X63.968 Y81.528 E.00314
M204 P1000
G1 E-2.24 F4200
;WIPE_START
G1 F7200
G1 X64.516 Y81.498 E-.30414
G1 X64.655 Y81.338 E-.11745
G1 X65.141 Y80.497 E-.53841
;WIPE_END
G1 Z.4 F720
G1 X69.346 Y75.254 F9000
G1 Z.2 F720
G1 E3.2 F2400
M204 P600
;TYPE:External perimeter
G1 F1200
G1 X72.789 Y75.254 E.10795
G1 X72.952 Y75.349 E.00592
G1 X72.977 Y75.915 E.01776
G1 X72.977 Y76.754 E.02631
G1 X74.289 Y76.754 E.04114
G1 X74.452 Y76.849 E.00592
G1 X74.477 Y76.943 E.00305
G1 X74.477 Y80.386 E.10795
G1 X74.385 Y80.548 E.00584
G1 X74.289 Y80.574 E.00312
G1 X72.977 Y80.574 E.04114
G1 X72.977 Y81.886 E.04114
G1 X72.938 Y82.001 E.00381
G1 X72.789 Y82.074 E.0052
G1 X69.346 Y82.074 E.10795
G1 X69.197 Y82.001 E.0052
G1 X69.157 Y81.886 E.00382
G1 X69.157 Y80.574 E.04114
G1 X67.846 Y80.574 E.04111
G1 X67.689 Y80.49 E.00558
G1 X67.657 Y80.386 E.00341
G1 X67.657 Y76.943 E.10795
G1 X67.683 Y76.849 E.00306
G1 X67.846 Y76.754 E.00592
G1 X69.157 Y76.754 E.04111
G1 X69.157 Y75.443 E.04111
G1 X69.183 Y75.349 E.00306
G1 X69.294 Y75.284 E.00403
M204 P1000
G1 X69.449 Y74.868 F9000
G1 E-2.24 F4200
;WIPE_START
G1 F7200
G1 X71.026 Y75.269 E-.96
;WIPE_END
G1 Z.4 F720
G1 X64.067 Y81.213 F9000
G1 Z.2 F720
G1 E3.2 F2400
M204 P600
G1 F1200
G1 X63.314 Y80.744 E.02781
G1 X62.929 Y80.415 E.01588
;WIDTH:0.414011
G1 X62.882 Y80.248 E.00535
;WIDTH:0.419999
G1 X62.988 Y79.883 E.01192
G1 X63.465 Y79.013 E.03111
G1 X67.424 Y72.155 E.24828
G1 X67.862 Y71.459 E.02578
G1 X68.176 Y71.02 E.01692
G1 X68.414 Y70.765 E.01094
;WIDTH:0.400343
G1 X68.545 Y70.764 E.00389
;WIDTH:0.419999
G1 X69.16 Y71.012 E.02079
G1 X69.77 Y71.327 E.02153
G1 X69.87 Y71.525 E.00695
G1 X64.33 Y81.148 E.34815
G1 X64.283 Y81.201 E.00222
G1 X64.127 Y81.21 E.0049
M204 P1000
G1 X63.776 Y81.488 F9000
G1 E-2.24 F4200
;WIPE_START
G1 F7200
G1 X63.314 Y80.744 E-.5193
G1 X62.929 Y80.415 E-.28064
G1 X62.882 Y80.248 E-.09614
G1 X62.914 Y80.137 E-.06392
;WIPE_END
G1 Z.4 F720
G1 X67.356 Y76.66 F9000
G1 Z.2 F720
G1 E3.2 F2400
M204 P600
;TYPE:Perimeter
;WIDTH:0.429096
G1 F1200
G1 X67.31 Y76.747 E.00316
M204 P1000
G1 E-2.24 F4200
;WIPE_START
G1 F7200
G1 X67.356 Y76.66 E-.05454
;WIPE_END
G1 E-.90546 F4200
G1 Z.4 F720
G1 X74.779 Y76.66 F9000
G1 Z.2 F720
G1 E3.2 F2400
M204 P600
;WIDTH:0.429974
G1 F1200
G1 X74.726 Y76.577 E.00317
M204 P1000
G1 E-2.24 F4200
;WIPE_START
G1 F7200
G1 X74.779 Y76.66 E-.05457
;WIPE_END
G1 E-.90543 F4200
G1 Z.4 F720
G1 X79.475 Y79.796 F9000
G1 Z.2 F720
G1 E3.2 F2400
M204 P600
;WIDTH:0.419999
G1 F1200
G1 X79.222 Y79.266 E.01841
G1 X78.872 Y78.609 E.02334
G1 X74.771 Y71.517 E.25687
G1 X74.297 Y70.856 E.0255
G1 X74.799 Y70.884 E.01576
G1 X78.008 Y70.89 E.10062
G1 X78.181 Y70.863 E.00549
G1 X78.386 Y70.746 E.0074
G1 X78.516 Y70.576 E.00671
G1 X78.574 Y70.247 E.01047
G1 X78.565 Y69.568 E.02129
G1 X78.497 Y68.936 E.01993
G1 X79.509 Y69.839 E.04253
G1 X80.02 Y70.358 E.02284
G1 X80.5 Y70.908 E.02289
G1 X80.947 Y71.486 E.02291
G1 X81.359 Y72.09 E.02292
G1 X81.734 Y72.717 E.02291
G1 X82.07 Y73.365 E.02289
G1 X82.368 Y74.033 E.02293
G1 X82.624 Y74.717 E.0229
G1 X82.84 Y75.415 E.02291
G1 X83.014 Y76.131 E.0231
G1 X83.203 Y77.074 E.03016
G1 X83.067 Y76.97 E.00537
G1 X82.408 Y76.559 E.02435
G1 X81.944 Y76.293 E.01677
G1 X81.69 Y76.277 E.00798
G1 X81.522 Y76.333 E.00555
G1 X81.292 Y76.553 E.00998
G1 X79.705 Y79.313 E.09982
G1 X79.501 Y79.742 E.01489
M204 P1000
G1 E-2.24 F4200
;WIPE_START
G1 F7200
G1 X79.222 Y79.266 E-.30576
G1 X78.872 Y78.609 E-.41253
G1 X78.654 Y78.231 E-.24171
;WIPE_END
G1 Z.4 F720
G1 X76.83 Y67.899 F9000
G1 Z.2 F720
G1 E3.2 F2400
M204 P600
G1 F1200
G1 X65.304 Y67.901 E.36139
G1 X65.934 Y67.583 E.02213
M73 P2 R34
G1 X66.606 Y67.296 E.02291
G1 X67.293 Y67.049 E.02289
G1 X67.995 Y66.845 E.02292
G1 X68.707 Y66.682 E.0229
G1 X69.428 Y66.562 E.02292
G1 X70.154 Y66.486 E.02289
G1 X70.917 Y66.454 E.02394
G1 X71.615 Y66.464 E.02189
G1 X72.344 Y66.519 E.02292
G1 X73.068 Y66.617 E.02291
G1 X73.785 Y66.758 E.02291
G1 X74.492 Y66.942 E.02291
G1 X75.187 Y67.168 E.02291
G1 X75.864 Y67.433 E.0228
G1 X76.776 Y67.873 E.03175
M204 P1000
G1 E-2.24 F4200
;WIPE_START
G1 F7200
G1 X75.044 Y67.877 E-.96
;WIPE_END
G1 Z.4 F720
G1 X73.717 Y70.761 F9000
G1 Z.2 F720
G1 E3.2 F2400
M204 P600
;TYPE:External perimeter
;WIDTH:0.418445
G1 F1200
G1 X73.804 Y70.82 E.00328
;WIDTH:0.419999
G1 X74.445 Y71.706 E.03429
G1 X78.546 Y78.798 E.25687
G1 X78.89 Y79.444 E.02295
G1 X79.247 Y80.223 E.02687
;WIDTH:0.416685
G1 X79.212 Y80.408 E.00585
;WIDTH:0.419999
G1 X78.819 Y80.739 E.01611
G1 X78.068 Y81.212 E.02783
G1 X77.824 Y81.175 E.00774
G1 X72.289 Y71.589 E.34707
G1 X72.267 Y71.525 E.00212
G1 X72.366 Y71.327 E.00694
G1 X72.539 Y71.237 E.00611
G1 X73.003 Y70.997 E.01638
G1 X73.583 Y70.764 E.0196
;WIDTH:0.403739
G1 X73.657 Y70.763 E.00222
M204 P1000
G1 E-2.24 F4200
;WIPE_START
G1 F7200
G1 X73.804 Y70.82 E-.08737
G1 X74.445 Y71.706 E-.60602
G1 X74.686 Y72.122 E-.26661
;WIPE_END
G1 Z.4 F720
G1 X78.198 Y70.323 F9000
G1 Z.2 F720
G1 E3.2 F2400
M204 P600
;WIDTH:0.419999
G1 F1200
G1 X78.135 Y70.465 E.00487
G1 X78.009 Y70.513 E.00423
G1 X74.8 Y70.507 E.10062
G1 X74.29 Y70.477 E.01602
G1 X73.794 Y70.402 E.01573
G1 X72.328 Y70.508 E.04609
G1 X69.822 Y70.509 E.07857
G1 X68.622 Y70.421 E.03773
;WIDTH:0.400343
G1 X68.316 Y70.404 E.00911
;WIDTH:0.419999
G1 X67.541 Y70.495 E.02447
G1 X64.126 Y70.513 E.10708
G1 X63.977 Y70.441 E.00519
G1 X63.937 Y70.318 E.00406
G1 X63.976 Y69.147 E.03674
G1 X64.063 Y68.555 E.01876
;WIDTH:0.41236
G1 X64.144 Y68.436 E.00442
;WIDTH:0.419999
G1 X64.817 Y68.313 E.02145
G1 X65.329 Y68.279 E.01609
G1 X66.719 Y68.272 E.04358
G1 X76.297 Y68.272 E.30031
G1 X76.805 Y68.279 E.01593
G1 X77.304 Y68.311 E.01568
G1 X77.914 Y68.398 E.01932
;WIDTH:0.409379
G1 X78.021 Y68.46 E.00377
;WIDTH:0.412121
G1 X78.073 Y68.56 E.00346
;WIDTH:0.419999
G1 X78.191 Y69.627 E.03366
G1 X78.197 Y70.263 E.01994
M204 P1000
G1 X78.308 Y70.432 F9000
G1 E-2.24 F4200
;WIPE_START
G1 F7200
G1 X78.135 Y70.465 E-.1171
G1 X78.009 Y70.513 E-.07472
G1 X76.623 Y70.51 E-.76818
;WIPE_END
G1 Z.4 F720
G1 X65.885 Y85.38 F9000
G1 Z.2 F720
G1 E3.2 F2400
M204 P600
;TYPE:Perimeter
G1 F1200
G1 X66.234 Y85.418 E.01101
G1 X67.695 Y85.451 E.04582
G1 X75.405 Y85.446 E.24174
G1 X76.243 Y85.373 E.02637
G1 X75.833 Y86.013 E.02383
G1 X74.351 Y88.575 E.0928
G1 X74.288 Y88.736 E.00542
G1 X74.285 Y88.965 E.00718
G1 X74.363 Y89.162 E.00664
G1 X74.604 Y89.374 E.01006
G1 X75.216 Y89.717 E.022
G1 X75.78 Y89.963 E.01929
G1 X74.489 Y90.388 E.04262
G1 X73.785 Y90.571 E.02281
G1 X73.068 Y90.712 E.02291
G1 X72.344 Y90.81 E.02291
G1 X71.615 Y90.865 E.02292
G1 X70.885 Y90.876 E.02289
G1 X70.155 Y90.843 E.02291
G1 X69.428 Y90.766 E.02292
G1 X68.707 Y90.647 E.02291
G1 X67.995 Y90.484 E.0229
G1 X67.288 Y90.278 E.02309
G1 X66.377 Y89.969 E.03016
G1 X66.535 Y89.903 E.00537
G1 X67.22 Y89.539 E.02432
G1 X67.683 Y89.269 E.01681
G1 X67.823 Y89.058 E.00794
G1 X67.859 Y88.884 E.00557
G1 X67.783 Y88.575 E.00998
G1 X66.175 Y85.798 E.10061
G1 X65.919 Y85.429 E.01408
M204 P1000
G1 X65.493 Y84.86 F9000
M204 P600
;TYPE:External perimeter
G1 F1200
G1 X65.392 Y84.187 E.02134
G1 X65.362 Y83.456 E.02294
